<?xml version="1.0" encoding="UTF-8"?>
<map version="1.10" tiledversion="1.11.2" orientation="orthogonal" renderorder="right-down" width="70" height="30" tilewidth="40" tileheight="40" infinite="0" nextlayerid="6" nextobjectid="163">
 <editorsettings>
  <export target="enemy_select.lua" format="lua"/>
 </editorsettings>
 <properties>
  <property name="name" value="Enemy Select - End Room"/>
 </properties>
 <tileset firstgid="1" source="../tilesets/castle.tsx"/>
 <tileset firstgid="41" source="../tilesets/JSAB.tsx"/>
 <tileset firstgid="201" source="../tilesets/Tutorial_Area.tsx"/>
 <layer id="1" name="tiles" width="70" height="30">
  <data encoding="csv">
0,0,0,0,42,43,43,43,43,0,0,0,0,0,0,0,0,45,45,45,45,46,0,0,0,0,0,0,0,227,228,228,228,228,228,228,228,228,228,229,0,0,0,0,0,0,0,0,0,0,0,0,0,0,0,0,0,0,0,0,0,0,0,0,0,0,0,0,0,0,
0,0,0,0,50,58,58,58,58,51,60,60,60,60,60,60,53,62,62,62,62,54,0,0,0,0,0,0,0,235,220,220,220,220,220,220,220,220,220,237,0,0,0,0,0,0,0,0,0,42,43,43,43,43,0,0,0,0,0,0,0,0,45,45,45,45,46,0,0,0,
0,0,0,0,50,58,58,58,58,59,52,52,52,52,52,52,61,62,62,62,62,54,0,0,0,0,0,0,0,235,220,220,220,220,220,220,220,220,220,237,0,0,0,0,0,0,0,0,0,50,58,58,58,58,51,60,60,60,60,60,60,53,62,62,62,62,54,0,0,0,
0,0,0,0,50,58,58,58,58,67,52,52,52,52,52,52,69,62,62,62,62,54,0,0,0,0,0,0,0,235,220,220,220,220,220,220,220,220,220,237,0,0,0,0,0,0,0,0,0,50,58,58,58,58,59,52,52,52,52,52,52,61,62,213,213,62,54,0,0,0,
0,0,0,0,50,58,58,58,58,51,52,52,52,52,52,52,53,62,62,62,62,54,0,0,0,0,0,0,0,235,220,220,220,220,220,220,220,220,220,237,0,0,0,0,0,0,0,0,0,50,58,58,58,58,67,52,52,52,52,52,52,69,62,213,213,62,54,0,0,0,
0,0,0,0,50,58,58,58,58,59,52,52,52,52,52,52,61,62,62,62,62,54,0,0,0,0,0,0,0,235,214,214,214,214,214,214,214,214,214,237,0,0,0,0,0,0,0,0,0,50,58,58,58,58,51,52,52,52,52,52,52,53,62,213,213,62,54,0,0,0,
0,0,0,0,50,58,58,58,58,67,52,52,52,52,52,52,69,62,62,62,62,54,0,0,0,0,0,0,0,235,220,220,220,220,220,206,206,220,220,237,0,0,0,0,0,0,0,0,0,50,58,58,58,58,59,52,52,52,52,52,52,61,62,62,62,62,54,0,0,0,
0,0,0,0,50,58,58,58,58,51,52,52,52,52,52,52,53,62,62,62,62,54,0,0,0,0,0,0,0,235,220,220,220,220,220,206,206,220,220,237,0,0,0,0,0,0,0,0,0,50,58,58,58,58,67,52,52,52,52,52,52,69,62,62,62,62,54,0,0,0,
0,0,0,0,50,58,58,58,58,59,52,52,52,52,52,52,61,62,62,62,62,54,0,0,0,0,0,0,0,235,220,220,220,215,215,214,214,207,207,237,0,0,0,0,0,0,0,0,0,50,58,58,58,58,51,52,52,52,52,52,52,53,62,62,62,62,54,0,0,0,
0,0,0,0,50,58,58,58,58,67,52,52,52,52,52,52,69,62,62,62,62,54,0,0,0,0,0,0,0,235,220,220,220,215,215,214,214,207,207,237,0,0,0,0,0,0,0,0,0,50,58,58,58,58,59,52,52,52,52,52,52,61,62,62,62,62,54,0,0,0,
0,0,0,0,50,58,58,58,58,51,52,52,52,52,52,52,53,62,62,62,62,54,0,0,0,0,0,0,0,235,220,220,220,220,220,208,208,220,220,237,0,0,0,0,0,0,0,0,0,50,58,58,58,58,67,52,52,52,52,52,52,69,62,208,206,62,54,0,0,0,
0,0,0,0,50,58,58,58,58,59,52,52,52,52,52,52,61,62,62,62,62,54,0,0,0,0,0,0,0,235,220,220,220,220,220,208,208,220,220,237,0,0,0,0,0,0,0,0,0,50,58,58,58,58,51,52,52,52,52,52,52,53,62,207,215,62,54,0,0,0,
0,0,0,0,0,57,57,57,57,57,57,57,57,63,63,63,63,63,63,63,63,0,0,0,0,0,0,0,0,235,220,220,220,220,220,220,220,220,220,237,0,0,0,0,0,0,0,0,0,50,58,58,58,58,59,52,52,52,52,52,52,61,62,214,221,62,54,0,0,0,
0,0,0,0,0,57,57,57,57,57,57,57,57,63,63,63,63,63,63,63,63,0,0,0,0,0,0,0,0,235,220,220,246,244,244,244,244,244,244,245,0,0,0,0,0,0,0,0,0,0,57,57,57,57,57,57,57,57,63,63,63,63,63,63,63,63,0,0,0,0,
0,0,0,0,0,0,0,0,0,0,0,57,57,63,63,0,0,0,0,0,0,0,0,0,0,0,0,0,0,235,208,208,237,0,0,0,0,0,0,0,0,0,0,0,0,0,0,0,0,0,57,57,57,57,57,57,57,57,63,63,63,63,63,63,63,63,0,0,0,0,
0,0,0,0,0,0,0,0,0,0,0,57,57,63,63,0,0,0,0,0,0,0,0,0,0,0,0,0,0,235,207,207,237,0,0,0,0,0,0,0,0,0,0,0,0,0,0,0,0,0,0,0,0,0,0,0,57,57,63,63,0,0,0,0,0,0,0,0,0,0,
0,0,0,0,0,0,0,0,0,0,0,57,57,63,63,0,0,0,0,0,0,0,0,0,0,0,0,0,0,235,206,206,237,0,0,0,0,0,0,0,0,0,0,0,0,0,0,0,0,0,0,0,0,0,0,0,57,57,63,63,0,0,0,0,0,0,0,0,0,0,
0,0,0,0,0,0,0,0,0,0,0,57,57,63,63,0,0,0,0,0,0,0,0,0,0,0,0,0,0,235,215,215,237,0,0,0,0,0,0,0,0,0,0,0,0,0,0,0,0,0,0,0,0,0,0,0,57,57,63,63,0,0,0,0,0,0,0,0,0,0,
0,0,0,0,0,0,0,0,0,0,0,57,57,63,63,0,0,0,0,0,0,0,0,0,0,0,0,0,0,235,212,212,237,0,0,0,0,0,0,0,0,0,0,0,0,0,0,0,0,0,0,0,0,0,0,0,57,57,63,63,0,0,0,0,0,0,0,0,0,0,
0,0,0,0,0,0,0,0,0,0,0,57,57,63,63,0,0,0,0,0,0,0,0,0,0,0,0,0,0,235,212,212,237,0,0,0,0,0,0,0,0,0,0,0,0,0,0,0,0,0,0,0,0,0,0,0,57,57,63,63,0,0,0,0,0,0,0,0,0,0,
0,23,23,23,23,23,23,23,23,23,23,23,23,23,23,23,23,23,23,23,23,23,23,23,23,23,23,23,23,23,23,23,23,23,23,23,23,23,23,23,23,23,23,23,23,23,23,23,23,23,23,23,23,23,23,23,23,23,23,23,23,23,23,23,23,23,23,23,23,0,
0,23,23,23,23,23,23,23,23,23,23,23,23,23,23,23,23,23,23,23,23,23,23,23,23,23,23,23,23,23,23,23,23,23,23,23,23,23,23,23,23,23,23,23,23,23,23,23,23,23,23,23,23,23,23,23,23,23,23,23,23,23,23,23,23,23,23,23,23,0,
0,23,23,23,23,23,23,23,23,23,23,23,23,23,23,23,23,23,23,23,23,23,23,23,23,23,23,23,23,23,23,23,23,23,23,23,23,23,23,23,23,23,23,23,23,23,23,23,23,23,23,23,23,23,23,23,23,23,23,23,23,23,23,23,23,23,23,23,23,0,
0,23,23,23,23,23,23,23,23,23,23,23,23,23,23,23,23,23,23,23,23,23,23,23,23,23,23,23,23,23,23,23,23,23,23,23,23,23,23,23,23,23,23,23,23,23,23,23,23,23,23,23,23,23,23,23,23,23,23,23,23,23,23,23,23,23,23,23,23,0,
0,23,23,23,23,23,23,23,23,23,23,23,23,23,23,23,23,23,23,23,23,23,23,23,23,23,23,23,23,23,23,23,23,23,23,23,23,23,23,23,23,23,23,23,23,23,23,23,23,23,23,23,23,23,23,23,23,23,23,23,23,23,23,23,23,23,23,23,23,0,
0,23,23,23,23,23,23,23,23,23,23,23,23,23,23,23,23,23,23,23,23,23,23,23,23,23,23,23,23,23,23,23,23,23,23,23,23,23,23,23,23,23,23,23,23,23,23,23,23,23,23,23,23,23,23,23,23,23,23,23,23,23,23,23,23,23,23,23,23,0,
0,23,23,23,23,23,23,23,23,23,23,23,23,23,23,23,23,23,23,23,23,23,23,23,23,23,23,23,23,23,23,23,23,23,23,23,23,23,23,23,23,23,23,23,23,23,23,23,23,23,23,23,23,23,23,23,23,23,23,23,23,23,23,23,23,23,23,23,23,0,
0,23,23,23,23,23,23,23,23,23,23,23,23,23,23,23,23,23,23,23,23,23,23,23,23,23,23,23,23,23,23,23,23,23,23,23,23,23,23,23,23,23,23,23,23,23,23,23,23,23,23,23,23,23,23,23,23,23,23,23,23,23,23,23,23,23,23,23,23,0,
0,23,23,23,23,23,23,23,23,23,23,23,23,23,23,23,23,23,23,23,23,23,23,23,23,23,23,23,23,23,23,23,23,23,23,23,23,23,23,23,23,23,23,23,23,23,23,23,23,23,23,23,23,23,23,23,23,23,23,23,23,23,23,23,23,23,23,23,23,0,
0,0,0,0,0,0,0,0,0,0,0,0,0,0,0,0,0,0,0,0,0,0,0,0,0,0,0,0,0,0,0,0,0,0,0,0,0,0,0,0,0,0,0,0,0,0,0,0,0,0,0,0,0,0,0,0,0,0,0,0,0,0,0,0,0,0,0,0,0,0
</data>
 </layer>
 <layer id="2" name="decal" width="70" height="30">
  <data encoding="csv">
0,0,0,0,0,0,0,0,0,0,0,0,0,0,0,0,0,0,0,0,0,0,0,0,0,0,0,0,0,0,0,0,0,0,0,0,0,0,0,0,0,0,0,0,0,0,0,0,0,0,0,0,0,0,0,0,0,0,0,0,0,0,0,0,0,0,0,0,0,0,
0,0,0,0,0,0,0,0,0,0,0,0,0,0,0,0,0,0,0,0,0,0,0,0,0,0,0,0,0,0,0,0,0,0,0,0,0,0,0,0,0,0,0,0,0,0,0,0,0,0,0,0,0,0,0,0,0,0,0,0,0,0,0,0,0,0,0,0,0,0,
0,0,0,0,0,0,0,0,0,0,0,0,0,0,0,0,0,0,0,0,0,0,0,0,0,0,0,0,0,0,0,0,0,0,0,0,0,0,0,0,0,0,0,0,0,0,0,0,0,0,0,0,0,0,0,0,0,0,0,0,0,0,0,0,0,0,0,0,0,0,
0,0,0,0,0,0,0,0,0,0,0,0,0,0,0,0,0,0,0,0,0,0,0,0,0,0,0,0,0,0,0,0,0,0,0,0,0,0,0,0,0,0,0,0,0,0,0,0,0,0,0,0,0,0,0,0,0,0,0,0,0,0,0,0,0,0,0,0,0,0,
0,0,0,0,0,0,0,0,0,0,0,0,0,0,0,0,0,0,0,0,0,0,0,0,0,0,0,0,0,0,0,0,0,0,0,0,0,0,0,0,0,0,0,0,0,0,0,0,0,0,0,0,0,0,0,0,0,0,0,0,0,0,0,0,0,0,0,0,0,0,
0,0,0,0,0,0,0,0,0,0,0,0,0,0,0,0,0,0,0,0,0,0,0,0,0,0,0,0,0,0,0,0,0,0,0,0,0,0,0,0,0,0,0,0,0,0,0,0,0,0,0,0,0,0,0,0,0,0,0,0,0,0,0,0,0,0,0,0,0,0,
0,0,0,0,0,0,0,0,0,0,0,0,0,0,0,0,0,0,0,0,0,0,0,0,0,0,0,0,0,0,0,0,0,0,0,0,0,0,0,0,0,0,0,0,0,0,0,0,0,0,0,0,0,0,0,0,0,0,0,0,0,0,0,0,0,0,0,0,0,0,
0,0,0,0,0,0,0,0,0,0,0,0,0,0,0,0,0,0,0,0,0,0,0,0,0,0,0,0,0,0,0,0,0,0,0,0,0,0,0,0,0,0,0,0,0,0,0,0,0,0,0,0,0,0,0,0,0,0,0,0,0,0,0,0,0,0,0,0,0,0,
0,0,0,0,0,0,0,0,0,0,0,0,0,0,0,0,0,0,0,0,0,0,0,0,0,0,0,0,0,0,0,0,0,0,0,0,0,0,0,0,0,0,0,0,0,0,0,0,0,0,0,0,0,0,0,0,0,0,0,0,0,0,0,0,0,0,0,0,0,0,
0,0,0,0,0,0,0,0,0,0,0,0,0,0,0,0,0,0,0,0,0,0,0,0,0,0,0,0,0,0,0,0,0,0,0,0,0,0,0,0,0,0,0,0,0,0,0,0,0,0,0,0,0,0,0,0,0,0,0,0,0,0,0,0,0,0,0,0,0,0,
0,0,0,0,0,0,0,0,0,0,0,0,0,0,0,0,0,0,0,0,0,0,0,0,0,0,0,0,0,0,0,0,0,0,0,0,0,0,0,0,0,0,0,0,0,0,0,0,0,0,0,0,0,0,0,0,0,0,0,0,0,0,0,0,0,0,0,0,0,0,
0,0,0,0,0,0,0,0,0,0,0,0,0,0,0,0,0,0,0,0,0,0,0,0,0,0,0,0,0,0,0,0,0,0,0,0,0,0,0,0,0,0,0,0,0,0,0,0,0,0,0,0,0,0,0,0,0,0,0,0,0,0,0,0,0,0,0,0,0,0,
0,0,0,0,0,0,0,0,0,0,0,0,0,0,0,0,0,0,0,0,0,0,0,0,0,0,0,0,0,0,0,0,0,0,0,0,0,0,0,0,0,0,0,0,0,0,0,0,0,0,0,0,0,0,0,0,0,0,0,0,0,0,0,0,0,0,0,0,0,0,
0,0,0,0,0,0,0,0,0,0,0,0,0,0,0,0,0,0,0,0,0,0,0,0,0,0,0,0,0,0,0,0,0,0,0,0,0,0,0,0,0,0,0,0,0,0,0,0,0,0,0,0,0,0,0,0,0,0,0,0,0,0,0,0,0,0,0,0,0,0,
0,0,0,0,0,0,0,0,0,0,0,0,0,0,0,0,0,0,0,0,0,0,0,0,0,0,0,0,0,0,0,0,0,0,0,0,0,0,0,0,0,0,0,0,0,0,0,0,0,0,0,0,0,0,0,0,0,0,0,0,0,0,0,0,0,0,0,0,0,0,
0,0,0,0,0,0,0,0,0,0,0,0,0,0,0,0,0,0,0,0,0,0,0,0,0,0,0,0,0,0,0,0,0,0,0,0,0,0,0,0,0,0,0,0,0,0,0,0,0,0,0,0,0,0,0,0,0,0,0,0,0,0,0,0,0,0,0,0,0,0,
0,0,0,0,0,0,0,0,0,0,0,0,0,0,0,0,0,0,0,0,0,0,0,0,0,0,0,0,0,0,0,0,0,0,0,0,0,0,0,0,0,0,0,0,0,0,0,0,0,0,0,0,0,0,0,0,0,0,0,0,0,0,0,0,0,0,0,0,0,0,
0,0,0,0,0,0,0,0,0,0,0,0,0,0,0,0,0,0,0,0,0,0,0,0,0,0,0,0,0,0,0,0,0,0,0,0,0,0,0,0,0,0,0,0,0,0,0,0,0,0,0,0,0,0,0,0,0,0,0,0,0,0,0,0,0,0,0,0,0,0,
0,0,0,0,0,0,0,0,0,0,0,0,0,0,0,0,0,0,0,0,0,0,0,0,0,0,0,0,0,0,0,0,0,0,0,0,0,0,0,0,0,0,0,0,0,0,0,0,0,0,0,0,0,0,0,0,0,0,0,0,0,0,0,0,0,0,0,0,0,0,
0,0,0,0,0,0,0,0,0,0,0,0,0,0,0,0,0,0,0,0,0,0,0,0,0,0,0,0,0,0,0,0,0,0,0,0,0,0,0,0,0,0,0,0,0,0,0,0,0,0,0,0,0,0,0,0,0,0,0,0,0,0,0,0,0,0,0,0,0,0,
0,0,0,0,0,0,0,0,0,0,0,0,0,0,0,0,0,0,0,0,0,0,0,0,0,0,0,0,0,0,0,0,0,0,0,0,0,0,0,0,0,0,0,0,0,0,0,0,0,0,0,0,0,0,0,0,0,0,0,0,0,0,0,0,0,0,0,0,0,0,
0,0,0,0,0,0,0,0,0,0,0,0,0,0,0,0,0,0,0,0,0,0,0,0,0,0,0,0,0,0,0,0,0,0,0,0,0,0,0,0,0,0,0,0,0,0,0,0,0,0,0,0,0,0,0,0,0,0,0,0,0,0,0,0,0,0,0,0,0,0,
0,0,0,0,0,0,0,0,0,0,0,0,0,0,0,0,0,0,0,0,0,0,0,0,0,0,0,0,0,0,0,0,0,0,0,0,0,0,0,0,0,0,0,0,0,0,0,0,0,0,0,0,0,0,0,0,0,0,0,0,0,0,0,0,0,0,0,0,0,0,
0,0,0,0,0,0,0,0,0,0,0,0,0,0,0,0,0,0,0,0,0,0,0,0,0,0,0,0,0,0,0,0,0,0,0,0,0,0,0,0,0,0,0,0,0,0,0,0,0,0,0,0,0,0,0,0,0,0,0,0,0,0,0,0,0,0,0,0,0,0,
0,0,0,0,0,0,0,0,0,0,0,0,0,0,0,0,0,0,0,0,0,0,0,0,0,0,0,0,0,0,0,0,0,0,0,0,0,0,0,0,0,0,0,0,0,0,0,0,0,0,0,0,0,0,0,0,0,0,0,0,0,0,0,0,0,0,0,0,0,0,
0,0,0,0,0,0,0,0,0,0,0,0,0,0,0,0,0,0,0,0,0,0,0,0,0,0,0,0,0,0,0,0,0,0,0,0,0,0,0,0,0,0,0,0,0,0,0,0,0,0,0,0,0,0,0,0,0,0,0,0,0,0,0,0,0,0,0,0,0,0,
0,0,0,0,0,0,0,0,0,0,0,0,0,0,0,0,0,0,0,0,0,0,0,0,0,0,0,0,0,0,0,0,0,0,0,0,0,0,0,0,0,0,0,0,0,0,0,0,0,0,0,0,0,0,0,0,0,0,0,0,0,0,0,0,0,0,0,0,0,0,
0,0,0,0,0,0,0,0,0,0,0,0,0,0,0,0,0,0,0,0,0,0,0,0,0,0,0,0,0,0,0,0,0,0,0,0,0,0,0,0,0,0,0,0,0,0,0,0,0,0,0,0,0,0,0,0,0,0,0,0,0,0,0,0,0,0,0,0,0,0,
0,0,0,0,0,0,0,0,0,0,0,0,0,0,0,0,0,0,0,0,0,0,0,0,0,0,0,0,0,0,0,0,0,0,0,0,0,0,0,0,0,0,0,0,0,0,0,0,0,0,0,0,0,0,0,0,0,0,0,0,0,0,0,0,0,0,0,0,0,0,
0,0,0,0,0,0,0,0,0,0,0,0,0,0,0,0,0,0,0,0,0,0,0,0,0,0,0,0,0,0,0,0,0,0,0,0,0,0,0,0,0,0,0,0,0,0,0,0,0,0,0,0,0,0,0,0,0,0,0,0,0,0,0,0,0,0,0,0,0,0
</data>
 </layer>
 <objectgroup color="#0000ff" id="3" name="collision" opacity="0.5">
  <object id="99" x="160" y="0" width="720" height="40"/>
  <object id="100" x="840" y="40" width="40" height="520"/>
  <object id="101" x="160" y="40" width="40" height="520"/>
  <object id="102" x="160" y="560" width="280" height="40"/>
  <object id="103" x="600" y="560" width="280" height="40"/>
  <object id="106" x="400" y="600" width="40" height="200"/>
  <object id="107" x="600" y="600" width="40" height="200"/>
  <object id="108" x="0" y="760" width="400" height="40"/>
  <object id="109" x="0" y="800" width="40" height="400"/>
  <object id="111" x="40" y="1160" width="2760" height="40"/>
  <object id="113" x="2760" y="800" width="40" height="360"/>
  <object id="124" x="1280" y="520" width="40" height="280"/>
  <object id="125" x="1320" y="520" width="280" height="40"/>
  <object id="126" x="1560" y="0" width="40" height="520"/>
  <object id="127" x="1200" y="0" width="360" height="40"/>
  <object id="128" x="1160" y="0" width="40" height="800"/>
  <object id="129" x="640" y="760" width="520" height="40"/>
  <object id="139" x="1320" y="760" width="920" height="40"/>
  <object id="140" x="2200" y="600" width="40" height="160"/>
  <object id="141" x="1960" y="600" width="240" height="40"/>
  <object id="142" x="1960" y="40" width="40" height="560"/>
  <object id="143" x="2000" y="40" width="680" height="40"/>
  <object id="144" x="2640" y="80" width="40" height="560"/>
  <object id="145" x="2400" y="600" width="240" height="40"/>
  <object id="146" x="2400" y="640" width="40" height="120"/>
  <object id="147" x="2400" y="760" width="400" height="40"/>
  <object id="156" x="2600" y="400" width="40" height="40"/>
  <object id="157" x="2520" y="360" width="80" height="40"/>
 </objectgroup>
 <objectgroup color="#ff00ff" id="4" name="objects">
  <object id="94" name="npc" x="640" y="240" width="40" height="40">
   <properties>
    <property name="actor" value="Barracuda"/>
    <property name="cutscene" value="ES.Barracuda_refight"/>
   </properties>
  </object>
  <object id="130" name="npc" x="1422.67" y="384">
   <properties>
    <property name="actor" value="FiftyN"/>
    <property name="cutscene" value="ES.Fifty_refight"/>
    <property name="facing" value="left"/>
   </properties>
   <point/>
  </object>
  <object id="153" name="npc" x="2560" y="160">
   <properties>
    <property name="actor" value="FiftyN"/>
    <property name="cutscene" value="ES.funny"/>
    <property name="facing" value="left"/>
   </properties>
   <point/>
  </object>
  <object id="154" name="npc" x="2560" y="440">
   <properties>
    <property name="actor" value="Test"/>
   </properties>
   <point/>
  </object>
  <object id="133" name="enemy" x="1240" y="120" width="40" height="40">
   <properties>
    <property name="actor" value="Test"/>
    <property name="encounter" value="Enemy"/>
   </properties>
  </object>
  <object id="134" name="enemy" x="1480" y="120" width="40" height="40">
   <properties>
    <property name="actor" value="Test"/>
    <property name="encounter" value="Enemy copy"/>
   </properties>
  </object>
  <object id="137" name="savepoint" x="240" y="880">
   <properties>
    <property name="text1" value="* You've made it to the end..."/>
    <property name="text2" value="* Despite everything, you still want a [color:yellow]Challenge[color:reset]."/>
    <property name="text3" value="* Your [color:yellow]GREAT CHALLENGE[color:reset] has only begun."/>
   </properties>
   <point/>
  </object>
  <object id="148" name="npc" x="2440" y="320" width="40" height="40">
   <properties>
    <property name="actor" value="Barracuda"/>
    <property name="cutscene" value="ES.Great_Challenge"/>
   </properties>
  </object>
  <object id="155" name="npc" x="280" y="800">
   <properties>
    <property name="actor" value="starwalker"/>
    <property name="cutscene" value="ES.party_change"/>
   </properties>
   <point/>
  </object>
  <object id="162" name="npc" x="360" y="800">
   <properties>
    <property name="actor" value="o_starwalker"/>
    <property name="cutscene" value="ES.soul_change"/>
   </properties>
   <point/>
  </object>
  <object id="158" name="script" x="2240" y="560" width="160" height="40">
   <properties>
    <property name="cutscene" value="ES.Choice"/>
    <property name="once" type="bool" value="false"/>
   </properties>
  </object>
 </objectgroup>
 <objectgroup color="#7f00ff" id="5" name="markers">
  <object id="93" name="camera_spot_A" x="520" y="240">
   <point/>
  </object>
  <object id="95" name="place_A" x="360" y="160">
   <point/>
  </object>
  <object id="96" name="placeH_A" x="360" y="240">
   <point/>
  </object>
  <object id="98" name="placeS_A" x="360" y="320">
   <point/>
  </object>
  <object id="135" name="portal_spawn" x="120" y="1040">
   <point/>
  </object>
  <object id="136" name="spawn" x="240" y="960">
   <point/>
  </object>
  <object id="149" name="camera_spot" x="2320" y="320">
   <point/>
  </object>
  <object id="150" name="place" x="2160" y="240">
   <point/>
  </object>
  <object id="151" name="placeH" x="2160" y="320">
   <point/>
  </object>
  <object id="152" name="placeS" x="2160" y="400">
   <point/>
  </object>
  <object id="160" name="back" x="2320" y="760">
   <point/>
  </object>
 </objectgroup>
</map>
