<?xml version="1.0" encoding="UTF-8"?>
<map version="1.10" tiledversion="1.11.2" orientation="orthogonal" renderorder="right-down" width="20" height="24" tilewidth="40" tileheight="40" infinite="0" nextlayerid="6" nextobjectid="122">
 <editorsettings>
  <export target="JSAB_preview1.lua" format="lua"/>
 </editorsettings>
 <properties>
  <property name="name" value="JSAB PREVIEW - Room 1"/>
 </properties>
 <tileset firstgid="1" source="../tilesets/castle.tsx"/>
 <tileset firstgid="41" source="../tilesets/JSAB.tsx"/>
 <layer id="1" name="tiles" width="20" height="24">
  <data encoding="csv">
42,43,43,43,43,43,43,43,43,43,43,43,43,43,43,43,43,43,43,41,
50,58,58,58,58,58,58,58,58,58,58,58,58,58,58,58,58,58,58,66,
50,58,58,58,58,58,58,58,58,58,58,58,58,58,58,58,58,58,58,66,
50,58,58,58,58,58,58,58,57,57,57,57,58,58,58,58,58,58,58,66,
50,58,58,58,58,58,58,58,57,57,57,57,58,58,58,58,58,58,58,66,
50,58,58,58,58,58,58,58,57,57,57,57,58,58,58,58,58,58,58,66,
50,58,58,58,58,58,58,58,57,57,57,57,58,58,58,58,58,58,58,66,
50,58,58,58,58,58,58,58,57,57,57,57,58,58,58,58,58,58,58,66,
50,58,58,58,58,58,58,58,57,57,57,57,58,58,58,58,58,58,58,66,
50,58,58,58,58,58,58,58,57,57,57,57,58,58,58,58,58,58,58,66,
50,58,58,58,58,58,58,58,57,57,57,57,58,58,58,58,58,58,58,66,
50,58,58,58,58,58,58,58,57,57,57,57,58,58,58,58,58,58,58,66,
50,58,58,58,58,58,58,58,57,57,57,57,58,58,58,58,58,58,58,66,
50,58,58,58,58,58,58,58,57,57,57,57,58,58,58,58,58,58,58,66,
50,58,58,57,57,57,57,57,57,57,57,57,57,57,57,57,57,58,58,66,
50,58,58,57,57,57,57,57,57,57,57,57,57,57,57,57,57,58,58,66,
50,58,58,58,58,58,58,58,57,57,57,57,58,58,58,58,58,58,58,66,
50,58,58,58,58,58,58,58,57,57,57,57,58,58,58,58,58,58,58,66,
50,58,58,58,58,58,58,58,57,57,57,57,58,58,58,58,58,58,58,66,
50,58,58,58,58,58,58,58,57,57,57,57,57,57,57,57,57,57,57,57,
50,58,58,58,58,58,58,58,57,57,57,57,57,57,57,57,57,57,57,57,
50,58,58,58,58,58,58,58,57,57,57,57,57,57,57,57,57,57,57,57,
50,58,58,58,58,58,58,58,58,58,58,58,58,58,58,58,58,58,58,66,
0,0,0,0,0,0,0,0,0,0,0,0,0,0,0,0,0,0,0,0
</data>
 </layer>
 <layer id="2" name="decal" width="20" height="24">
  <data encoding="csv">
0,0,0,0,0,0,0,0,0,0,0,0,0,0,0,0,0,0,0,0,
0,0,0,0,0,0,0,0,0,0,0,0,0,0,0,0,0,0,0,0,
0,0,0,0,0,0,0,0,0,0,0,0,0,0,0,0,0,0,0,0,
0,0,0,0,0,0,0,0,0,0,0,0,0,0,0,0,0,0,0,0,
0,0,0,0,0,0,0,0,0,0,0,0,0,0,0,0,0,0,0,0,
0,0,0,0,0,0,0,0,0,0,0,0,0,0,0,0,0,0,0,0,
0,0,0,0,0,0,0,0,0,0,0,0,0,0,0,0,0,0,0,0,
0,0,0,0,0,0,0,0,0,0,0,0,0,0,0,0,0,0,0,0,
0,0,0,0,0,0,0,0,0,0,0,0,0,0,0,0,0,0,0,0,
0,0,0,0,0,0,0,0,0,0,0,0,0,0,0,0,0,0,0,0,
0,0,0,0,0,0,0,0,0,0,0,0,0,0,0,0,0,0,0,0,
0,0,0,0,0,0,0,0,0,0,0,0,0,0,0,0,0,0,0,0,
0,0,0,0,0,0,0,0,0,0,0,0,0,0,0,0,0,0,0,0,
0,0,0,0,0,0,0,0,0,0,0,0,0,0,0,0,0,0,0,0,
0,0,0,0,0,0,0,0,0,0,0,0,0,0,0,0,0,0,0,0,
0,0,0,0,0,0,0,0,0,0,0,0,0,0,0,0,0,0,0,0,
0,0,0,0,0,0,0,0,0,0,0,0,0,0,0,0,0,0,0,0,
0,0,0,0,0,0,0,0,0,0,0,0,0,0,0,0,0,0,0,0,
0,0,0,0,0,0,0,0,0,0,0,0,0,0,0,0,0,0,0,0,
0,0,0,0,0,0,0,0,0,0,0,0,0,0,0,0,0,0,0,0,
0,0,0,0,0,0,0,0,0,0,0,0,0,0,0,0,0,0,0,0,
0,0,0,0,0,0,0,0,0,0,0,0,0,0,0,0,0,0,0,0,
0,0,0,0,0,0,0,0,0,0,0,0,0,0,0,0,0,0,0,0,
0,0,0,0,0,0,0,0,0,0,0,0,0,0,0,0,0,0,0,0
</data>
 </layer>
 <objectgroup color="#0000ff" id="3" name="collision" opacity="0.5">
  <object id="91" x="0" y="0" width="800" height="40"/>
  <object id="93" x="0" y="40" width="40" height="920"/>
  <object id="94" x="40" y="920" width="760" height="40"/>
  <object id="104" x="760" y="40" width="40" height="720"/>
  <object id="116" x="378.333" y="40.3333" width="44.6667" height="79.6667"/>
 </objectgroup>
 <objectgroup color="#ff00ff" id="4" name="objects">
  <object id="66" x="980.32" y="226.545" height="1.373"/>
  <object id="105" name="transition" x="760" y="760" width="40" height="160">
   <properties>
    <property name="map" value="JSAB_preview2"/>
    <property name="marker" value="left"/>
   </properties>
  </object>
  <object id="110" name="chest" x="219.391" y="541.828">
   <properties>
    <property name="item" value="jsab_egg"/>
   </properties>
   <point/>
  </object>
  <object id="111" name="chest" x="582.825" y="541.828">
   <properties>
    <property name="item" value="jvab"/>
   </properties>
   <point/>
  </object>
  <object id="115" name="portal2" x="379.333" y="40.6667">
   <point/>
  </object>
 </objectgroup>
 <objectgroup color="#7f00ff" id="5" name="markers">
  <object id="99" name="spawn" x="400" y="200">
   <point/>
  </object>
  <object id="103" name="right" x="680" y="840">
   <point/>
  </object>
  <object id="119" name="portal_spawn" x="400" y="240">
   <point/>
  </object>
  <object id="120" name="HW_spawn" x="240" y="240">
   <point/>
  </object>
 </objectgroup>
</map>
