<?xml version="1.0" encoding="UTF-8"?>
<map version="1.10" tiledversion="1.11.2" orientation="orthogonal" renderorder="right-down" width="40" height="15" tilewidth="40" tileheight="40" infinite="0" nextlayerid="6" nextobjectid="142">
 <editorsettings>
  <export target="JSAB_preview2.lua" format="lua"/>
 </editorsettings>
 <properties>
  <property name="name" value="JSAB preview - Room 2"/>
 </properties>
 <tileset firstgid="1" source="../tilesets/castle.tsx"/>
 <tileset firstgid="41" source="../tilesets/JSAB.tsx"/>
 <layer id="1" name="tiles" width="40" height="15">
  <data encoding="csv">
42,43,43,43,43,43,43,43,43,43,43,43,43,43,43,43,43,0,0,0,0,0,0,0,0,45,45,45,45,45,45,45,45,45,45,45,45,45,45,46,
50,58,58,58,58,58,58,58,58,58,58,58,58,58,58,58,58,51,60,60,60,60,60,60,53,62,62,62,62,62,62,62,62,62,62,62,62,62,62,54,
50,58,58,58,58,58,58,58,58,58,58,58,58,58,58,58,58,59,60,60,60,60,60,60,61,62,62,62,62,62,62,62,62,62,62,62,62,62,62,54,
50,58,58,58,58,58,58,58,58,58,58,58,58,58,58,58,58,67,60,60,60,60,60,60,69,62,62,62,62,62,62,62,62,62,62,62,62,62,62,54,
50,58,58,58,58,58,58,58,58,58,58,58,58,58,58,58,58,51,60,60,60,60,60,60,53,62,62,62,62,62,62,62,62,62,62,62,62,62,62,54,
57,57,57,57,57,57,57,57,57,57,57,57,57,57,57,58,58,59,60,60,60,60,60,60,61,62,62,63,63,63,63,63,63,63,63,63,63,63,63,63,
57,57,57,57,57,57,57,57,57,57,57,57,57,57,57,58,58,67,60,60,60,60,60,60,69,62,62,63,63,63,63,63,63,63,63,63,63,63,63,63,
57,57,57,57,57,57,57,57,57,57,57,57,57,57,57,58,58,51,60,60,60,60,60,60,53,62,62,63,63,63,63,63,63,63,63,63,63,63,63,63,
57,57,57,57,57,57,57,57,57,57,57,57,57,57,57,58,58,59,60,60,60,60,60,60,61,62,62,63,63,63,63,63,63,63,63,63,63,63,63,63,
50,58,58,58,58,58,58,58,58,58,58,58,58,58,58,58,58,67,60,60,60,60,60,60,69,62,62,62,62,62,62,62,62,62,62,62,62,62,62,54,
50,58,58,58,58,58,58,58,58,58,58,58,58,58,58,58,58,51,60,60,60,60,60,60,53,62,62,62,62,62,62,62,62,62,62,62,62,62,62,54,
50,58,58,58,58,58,58,58,58,58,58,58,58,58,58,58,58,59,60,60,60,60,60,60,61,62,62,62,62,62,62,62,62,62,62,62,62,62,62,54,
50,58,58,58,58,58,58,58,58,58,58,58,58,58,58,58,58,67,60,60,60,60,60,60,69,62,62,62,62,62,62,62,62,62,62,62,62,62,62,54,
50,58,58,58,58,58,58,58,58,58,58,58,58,58,58,58,58,51,60,60,60,60,60,60,53,62,62,62,62,62,62,62,62,62,62,62,62,62,62,54,
0,0,0,0,0,0,0,0,0,0,0,0,0,0,0,0,0,0,0,0,0,0,0,0,0,0,0,0,0,0,0,0,0,0,0,0,0,0,0,0
</data>
 </layer>
 <layer id="2" name="decal" width="40" height="15">
  <data encoding="csv">
0,0,0,0,0,0,0,0,0,0,0,0,0,0,0,0,0,0,0,0,0,0,0,0,0,0,0,0,0,0,0,0,0,0,0,0,0,0,0,0,
0,0,0,0,0,0,0,0,0,0,0,0,0,0,0,0,0,0,0,0,0,0,0,0,0,0,0,0,0,0,0,0,0,0,0,0,0,0,0,0,
0,0,0,0,0,0,0,0,0,0,0,0,0,0,0,0,0,0,0,0,0,0,0,0,0,0,0,0,0,0,0,0,0,0,0,0,0,0,0,0,
0,0,0,0,0,0,0,0,0,0,0,0,0,0,0,0,0,0,0,0,0,0,0,0,0,0,0,0,0,0,0,0,0,0,0,0,0,0,0,0,
0,0,0,0,0,0,0,0,0,0,0,0,0,0,0,0,0,0,0,0,0,0,0,0,0,0,0,0,0,0,0,0,0,0,0,0,0,0,0,0,
0,0,0,0,0,0,0,0,0,0,0,0,0,0,0,0,0,0,0,0,0,0,0,0,0,0,0,0,0,0,0,0,0,0,0,0,0,0,0,0,
0,0,0,0,0,0,0,0,0,0,0,0,0,0,0,0,0,0,0,0,0,0,0,0,0,0,0,0,0,0,0,0,0,0,0,0,0,0,0,0,
0,0,0,0,0,0,0,0,0,0,0,0,0,0,0,0,0,0,0,0,0,0,0,0,0,0,0,0,0,0,0,0,0,0,0,0,0,0,0,0,
0,0,0,0,0,0,0,0,0,0,0,0,0,0,0,0,0,0,0,0,0,0,0,0,0,0,0,0,0,0,0,0,0,0,0,0,0,0,0,0,
0,0,0,0,0,0,0,0,0,0,0,0,0,0,0,0,0,0,0,0,0,0,0,0,0,0,0,0,0,0,0,0,0,0,0,0,0,0,0,0,
0,0,0,0,0,0,0,0,0,0,0,0,0,0,0,0,0,0,0,0,0,0,0,0,0,0,0,0,0,0,0,0,0,0,0,0,0,0,0,0,
0,0,0,0,0,0,0,0,0,0,0,0,0,0,0,0,0,0,0,0,0,0,0,0,0,0,0,0,0,0,0,0,0,0,0,0,0,0,0,0,
0,0,0,0,0,0,0,0,0,0,0,0,0,0,0,0,0,0,0,0,0,0,0,0,0,0,0,0,0,0,0,0,0,0,0,0,0,0,0,0,
0,0,0,0,0,0,0,0,0,0,0,0,0,0,0,0,0,0,0,0,0,0,0,0,0,0,0,0,0,0,0,0,0,0,0,0,0,0,0,0,
0,0,0,0,0,0,0,0,0,0,0,0,0,0,0,0,0,0,0,0,0,0,0,0,0,0,0,0,0,0,0,0,0,0,0,0,0,0,0,0
</data>
 </layer>
 <objectgroup color="#0000ff" id="3" name="collision" opacity="0.5">
  <object id="93" x="0" y="40" width="40" height="157"/>
  <object id="94" x="0" y="363" width="40" height="197"/>
  <object id="96" x="0" y="560" width="1600" height="40"/>
  <object id="97" x="0" y="0" width="1600" height="40"/>
  <object id="102" x="1560" y="40" width="40" height="159"/>
  <object id="104" x="1560" y="361" width="40" height="199"/>
 </objectgroup>
 <objectgroup color="#ff00ff" id="4" name="objects">
  <object id="92" name="transition" x="0" y="200" width="40" height="161">
   <properties>
    <property name="map" value="JSAB_preview1"/>
    <property name="marker" value="right"/>
   </properties>
  </object>
  <object id="99" name="transition" x="1560" y="199" width="40" height="160">
   <properties>
    <property name="map" value="JSAB_preview3"/>
    <property name="marker" value="left"/>
   </properties>
  </object>
  <object id="111" name="script" x="680" y="40" width="40" height="520">
   <properties>
    <property name="cutscene" value="JSAB.Barracuda"/>
   </properties>
  </object>
  <object id="137" name="savepoint" x="200" y="200">
   <properties>
    <property name="text1" value="* You feel like you're about to face a difficult fight..."/>
    <property name="text2" value="* Your soul shines with [color:red]DETERMINATION[color:reset]"/>
   </properties>
   <point/>
  </object>
 </objectgroup>
 <objectgroup color="#7f00ff" id="5" name="markers">
  <object id="105" name="left" x="80" y="280">
   <point/>
  </object>
  <object id="106" name="right" x="1520" y="280">
   <point/>
  </object>
  <object id="108" name="spawn" x="200" y="280">
   <point/>
  </object>
  <object id="112" name="place" x="680" y="160">
   <point/>
  </object>
  <object id="130" name="placeH" x="680" y="400">
   <point/>
  </object>
  <object id="133" name="camera_spot" x="840" y="280">
   <point/>
  </object>
 </objectgroup>
</map>
