<?xml version="1.0" encoding="UTF-8"?>
<map version="1.10" tiledversion="1.11.2" orientation="orthogonal" renderorder="right-down" width="20" height="24" tilewidth="40" tileheight="40" infinite="0" nextlayerid="6" nextobjectid="108">
 <editorsettings>
  <export target="missingno.lua" format="lua"/>
 </editorsettings>
 <properties>
  <property name="name" value="Test Map - Room 1"/>
 </properties>
 <tileset firstgid="1" source="../tilesets/castle.tsx"/>
 <layer id="1" name="tiles" width="20" height="24">
  <data encoding="csv">
0,0,0,0,0,0,0,4,4,0,0,0,0,0,0,0,0,0,0,0,
0,0,0,0,4,4,0,0,0,0,0,0,0,0,0,0,0,0,0,0,
0,0,4,4,4,0,0,0,0,4,4,13,13,26,23,23,23,19,20,0,
0,0,0,0,0,0,0,0,0,13,13,24,24,26,23,23,19,19,20,0,
0,0,0,0,1,1,1,0,0,4,4,17,24,26,23,19,19,20,20,0,
0,4,0,0,1,1,0,1,0,13,4,17,24,26,23,19,19,19,18,0,
0,0,4,4,0,1,1,1,1,13,13,17,24,26,23,19,19,19,18,0,
0,0,0,4,4,0,0,0,1,1,17,17,24,28,23,28,19,19,18,0,
0,0,0,0,0,4,4,4,0,1,11,17,24,28,23,23,19,19,18,0,
0,0,0,0,0,17,17,17,17,23,11,22,22,28,20,23,19,18,18,0,
0,17,17,17,0,0,0,0,17,23,11,11,22,28,20,20,19,18,18,0,
0,0,0,0,0,0,0,0,0,23,23,11,22,28,28,20,20,20,18,0,
0,0,0,13,17,13,26,26,26,26,27,27,27,27,27,27,20,20,18,0,
0,0,0,13,26,17,3,26,27,27,27,17,17,17,17,27,27,27,18,0,
0,0,0,13,13,17,3,3,3,8,8,8,8,19,17,17,8,27,18,0,
0,0,0,13,16,16,3,17,26,3,6,6,19,19,8,17,17,17,18,0,
0,0,0,23,23,16,3,17,3,26,26,21,19,6,6,6,6,17,8,0,
0,0,23,23,23,16,18,18,19,19,19,21,6,6,6,6,6,6,17,0,
0,0,23,23,23,16,21,18,18,21,21,21,21,21,21,6,17,17,23,0,
0,0,18,23,23,16,16,3,21,13,3,3,16,16,23,23,23,23,23,0,
0,0,18,18,18,13,16,16,16,16,16,16,16,23,23,23,23,23,23,0,
0,0,0,22,22,22,22,22,22,22,22,22,22,22,22,22,22,23,23,0,
0,0,0,0,0,0,0,0,0,0,0,0,0,0,0,0,0,0,0,0,
0,0,0,0,0,0,0,0,0,0,0,0,0,0,0,0,0,0,0,0
</data>
 </layer>
 <layer id="2" name="decal" width="20" height="24">
  <data encoding="csv">
0,0,0,0,0,0,0,0,0,0,0,0,0,0,0,0,0,0,0,0,
0,0,0,0,0,0,0,0,0,0,0,0,0,0,0,0,0,0,0,0,
0,0,0,0,0,0,0,0,0,0,0,0,0,0,0,0,0,0,0,0,
0,0,0,0,0,0,0,0,0,0,0,0,0,0,0,0,0,0,0,0,
0,0,0,0,0,0,0,0,0,0,0,0,0,0,0,0,0,0,0,0,
0,0,0,0,0,0,0,0,0,0,0,0,0,0,0,0,0,0,0,0,
0,0,0,0,0,0,0,0,0,0,0,0,0,0,0,0,0,0,0,0,
0,0,0,0,0,0,0,0,0,0,0,0,0,0,0,0,0,0,0,0,
0,0,0,0,0,0,0,0,0,0,0,0,0,0,0,0,0,0,0,0,
0,0,0,0,0,0,0,0,0,0,0,0,0,0,0,0,0,0,0,0,
0,0,0,0,0,0,0,0,0,0,0,0,0,0,0,0,0,0,0,0,
0,0,0,0,0,0,0,0,0,0,0,0,0,0,0,0,0,0,0,0,
0,0,0,0,0,0,0,0,0,0,0,0,0,0,0,0,0,0,0,0,
0,0,0,0,0,0,0,0,0,0,0,0,0,0,0,0,0,0,0,0,
0,0,0,0,0,0,0,0,0,0,0,0,0,0,0,0,0,0,0,0,
0,0,0,0,0,0,0,0,0,0,0,0,0,0,0,0,0,0,0,0,
0,0,0,0,0,0,0,0,0,0,0,0,0,0,0,0,0,0,0,0,
0,0,0,0,0,0,0,0,0,0,0,0,0,0,0,0,0,0,0,0,
0,0,0,0,0,0,0,0,0,0,0,0,0,0,0,0,0,0,0,0,
0,0,0,0,0,0,0,0,0,0,0,0,0,0,0,0,0,0,0,0,
0,0,0,0,0,0,0,0,0,0,0,0,0,0,0,0,0,0,0,0,
0,0,0,0,0,0,0,0,0,0,0,0,0,0,0,0,0,0,0,0,
0,0,0,0,0,0,0,0,0,0,0,0,0,0,0,0,0,0,0,0,
0,0,0,0,0,0,0,0,0,0,0,0,0,0,0,0,0,0,0,0
</data>
 </layer>
 <objectgroup color="#0000ff" id="3" name="collision" opacity="0.5">
  <object id="94" x="120" y="880" width="680" height="40"/>
  <object id="95" x="760" y="40" width="40" height="840"/>
  <object id="96" x="520" y="40" width="240" height="40"/>
  <object id="99" x="80" y="480" width="40" height="200"/>
  <object id="100" x="80" y="840" width="40" height="80"/>
  <object id="105" x="80" y="440" width="240" height="40"/>
  <object id="106" x="320" y="40" width="40" height="440"/>
  <object id="107" x="360" y="40" width="160" height="40"/>
 </objectgroup>
 <objectgroup color="#ff00ff" id="4" name="objects">
  <object id="66" x="980.32" y="226.545" height="1.373"/>
  <object id="98" x="40" y="680" width="40" height="160"/>
 </objectgroup>
 <objectgroup color="#7f00ff" id="5" name="markers">
  <object id="103" name="spawn" x="160" y="760">
   <point/>
  </object>
 </objectgroup>
</map>
