<?xml version="1.0" encoding="UTF-8"?>
<map version="1.10" tiledversion="1.11.2" orientation="orthogonal" renderorder="right-down" width="20" height="24" tilewidth="40" tileheight="40" infinite="0" nextlayerid="6" nextobjectid="106">
 <editorsettings>
  <export target="room1.lua" format="lua"/>
 </editorsettings>
 <properties>
  <property name="name" value="Test Map - Room 1"/>
 </properties>
 <tileset firstgid="1" source="../tilesets/castle.tsx"/>
 <tileset firstgid="41" source="../tilesets/Tutorial_Area.tsx"/>
 <layer id="1" name="tiles" width="20" height="24">
  <data encoding="csv">
11,11,11,10,11,11,11,11,11,11,11,11,11,11,11,11,11,11,12,11,
11,11,11,10,11,11,11,11,11,11,11,11,11,11,11,11,11,11,12,11,
11,11,11,10,11,11,11,11,11,11,11,11,11,11,11,11,11,11,12,11,
11,11,11,14,15,15,15,15,15,15,15,15,15,15,15,15,15,15,16,11,
11,11,11,18,19,19,19,19,19,19,19,19,19,19,19,19,19,19,20,11,
11,11,11,22,23,23,23,23,27,23,23,23,23,27,23,23,23,23,24,11,
11,11,11,22,23,23,23,23,23,23,23,23,23,23,23,23,23,23,24,11,
11,11,11,22,23,23,23,23,15,15,15,23,23,23,23,23,23,23,24,11,
11,11,11,22,23,52,52,52,15,15,15,23,23,23,23,23,23,23,24,11,
11,11,11,22,23,52,52,52,15,15,15,23,23,23,23,23,23,23,24,11,
11,11,11,22,23,52,52,52,23,23,23,23,23,23,23,23,23,23,24,11,
11,11,11,22,23,23,23,23,23,23,23,23,23,23,23,23,23,23,24,11,
11,11,11,22,23,23,23,23,23,23,23,23,23,23,23,23,23,23,24,11,
11,11,11,22,23,23,23,23,23,23,23,23,23,23,23,23,23,23,24,11,
11,11,11,22,23,23,23,23,23,23,23,23,23,23,23,23,23,23,24,11,
11,11,11,22,23,23,23,23,23,23,23,23,23,23,23,23,23,23,24,11,
11,11,11,22,26,27,27,27,27,27,27,27,27,27,27,27,27,28,24,11,
11,11,11,11,11,11,11,11,11,11,11,11,11,11,11,11,11,11,11,11,
11,11,11,11,11,11,11,11,11,11,11,11,11,11,11,11,11,11,11,11,
11,11,11,11,11,11,11,11,11,11,11,11,11,11,11,11,11,11,11,11,
11,11,11,11,11,11,11,11,11,11,11,11,11,11,11,11,11,11,11,11,
11,11,11,11,11,11,11,11,11,11,11,11,11,11,11,11,11,11,11,11,
11,11,11,11,11,11,11,11,11,11,11,11,11,11,11,11,11,11,11,11,
11,11,11,11,11,11,11,11,11,11,11,11,11,11,11,11,11,11,11,11
</data>
 </layer>
 <layer id="2" name="decal" width="20" height="24">
  <data encoding="csv">
0,0,0,0,0,0,0,0,0,0,0,0,0,0,0,0,0,0,0,0,
0,0,0,0,0,0,0,0,0,0,0,0,0,0,0,0,0,0,0,0,
0,0,0,0,0,0,0,0,0,0,0,0,0,0,0,0,0,0,0,0,
0,0,0,0,0,0,0,0,0,0,0,0,0,0,0,0,0,0,0,0,
0,0,0,0,0,0,0,0,0,0,0,0,0,0,0,0,0,0,0,0,
0,0,0,0,0,0,0,0,0,0,0,0,0,0,0,0,0,0,0,0,
0,0,0,0,0,0,0,0,0,0,0,0,0,0,0,0,0,0,0,0,
0,0,0,0,0,0,0,0,30,31,32,0,0,0,0,0,0,0,0,0,
0,0,0,0,0,0,0,0,34,35,36,0,0,0,0,0,0,0,0,0,
0,0,0,0,0,0,0,0,38,39,40,0,0,0,0,0,0,0,0,0,
0,0,0,0,0,0,0,0,0,0,0,0,0,0,0,0,0,0,0,0,
0,0,0,0,0,0,0,0,0,0,0,0,0,0,0,0,0,0,0,0,
0,0,0,0,0,0,0,0,0,0,0,0,0,0,0,0,0,0,0,0,
0,0,0,0,0,0,0,0,0,0,0,0,0,0,0,0,0,0,0,0,
0,0,0,0,0,0,0,0,0,0,0,0,0,0,0,0,0,0,0,0,
0,0,0,0,0,0,0,0,0,0,0,0,0,0,0,0,0,0,0,0,
0,0,0,0,0,0,0,0,0,0,0,0,0,0,0,0,0,0,0,0,
0,0,0,0,0,0,0,0,0,0,0,0,0,0,0,0,0,0,0,0,
0,0,0,0,0,0,0,0,0,0,0,0,0,0,0,0,0,0,0,0,
0,0,0,0,0,0,0,0,0,0,0,0,0,0,0,0,0,0,0,0,
0,0,0,0,0,0,0,0,0,0,0,0,0,0,0,0,0,0,0,0,
0,0,0,0,0,0,0,0,0,0,0,0,0,0,0,0,0,0,0,0,
0,0,0,0,0,0,0,0,0,0,0,0,0,0,0,0,0,0,0,0,
0,0,0,0,0,0,0,0,0,0,0,0,0,0,0,0,0,0,0,0
</data>
 </layer>
 <objectgroup color="#0000ff" id="3" name="collision" opacity="0.5">
  <object id="38" x="320" y="160" width="120" height="40"/>
  <object id="45" x="360" y="640" width="240" height="40"/>
  <object id="46" x="600" y="640" width="40" height="40"/>
  <object id="55" x="120" y="160" width="640" height="40"/>
  <object id="57" x="120" y="640" width="600" height="40"/>
  <object id="71" x="120" y="200" width="40" height="120"/>
  <object id="72" x="120" y="480" width="40" height="160"/>
  <object id="92" x="720" y="480" width="40" height="200"/>
  <object id="93" x="720" y="200" width="40" height="120"/>
  <object id="95" x="0" y="480" width="120" height="40"/>
  <object id="96" x="0" y="280" width="120" height="40"/>
 </objectgroup>
 <objectgroup color="#ff00ff" id="4" name="objects">
  <object id="62" name="chest" x="280" y="240">
   <properties>
    <property name="money" type="int" value="999999"/>
   </properties>
   <point/>
  </object>
  <object id="66" x="980.32" y="226.545" height="1.373"/>
  <object id="69" name="transition" x="760" y="320" width="40" height="160">
   <properties>
    <property name="map" value="room2"/>
    <property name="marker" value="entry"/>
   </properties>
  </object>
  <object id="89" name="transition" x="0" y="320" width="40" height="160">
   <properties>
    <property name="map" value="room3"/>
    <property name="marker" value="entry"/>
   </properties>
  </object>
  <object id="87" name="transition" x="360" y="200" width="160" height="40">
   <properties>
    <property name="marker" value="enty"/>
    <property name="shop" value="TestShop"/>
   </properties>
  </object>
  <object id="97" name="savepoint" x="240" y="520" width="40" height="40">
   <properties>
    <property name="text1" value="* The air tenses with happy feelings"/>
    <property name="text2">* The Power of Happiness shines
in your very soul.</property>
    <property name="text3">* A Happy Birthday to the Creator
of this mod.</property>
   </properties>
  </object>
  <object id="98" name="npc" x="400" y="360" width="40" height="40">
   <properties>
    <property name="actor" value="missingno"/>
    <property name="cutscene" value="Overworld.Profanity_toggle"/>
   </properties>
  </object>
  <object id="104" name="transition" x="245.333" y="786.667" width="404" height="53.3333">
   <properties>
    <property name="map" value=""/>
   </properties>
  </object>
  <object id="105" name="script" x="400" y="520" width="80" height="80">
   <properties>
    <property name="cutscene" value="Overworld.begin"/>
   </properties>
  </object>
 </objectgroup>
 <objectgroup color="#7f00ff" id="5" name="markers">
  <object id="61" name="spawn" x="440" y="560">
   <point/>
  </object>
  <object id="82" name="entry" x="680" y="400">
   <point/>
  </object>
  <object id="90" name="etry" x="160" y="400">
   <point/>
  </object>
  <object id="91" name="enty" x="440" y="280">
   <point/>
  </object>
 </objectgroup>
</map>
