<?xml version="1.0" encoding="UTF-8"?>
<map version="1.10" tiledversion="1.11.2" orientation="orthogonal" renderorder="right-down" width="20" height="24" tilewidth="40" tileheight="40" infinite="0" nextlayerid="6" nextobjectid="91">
 <editorsettings>
  <export target="room3.lua" format="lua"/>
 </editorsettings>
 <properties>
  <property name="name" value="Test Map - Room 1"/>
 </properties>
 <tileset firstgid="1" source="../tilesets/castle.tsx"/>
 <layer id="1" name="tiles" width="20" height="24">
  <data encoding="csv">
11,11,11,11,11,11,11,11,11,11,11,11,11,11,11,11,11,11,11,11,
11,11,11,11,11,11,11,11,11,11,11,11,11,11,11,11,11,11,11,11,
11,11,11,11,11,11,11,11,11,11,11,11,11,11,11,11,11,11,11,11,
6,7,7,7,7,7,7,7,7,7,7,7,7,7,7,7,7,8,11,11,
10,23,23,23,23,23,23,23,23,23,23,23,23,23,23,23,23,12,11,11,
10,23,23,23,23,23,23,23,23,23,23,23,23,23,23,23,23,12,11,11,
10,23,23,23,23,23,23,23,23,23,23,23,23,23,23,23,23,12,11,11,
10,23,23,23,23,23,23,23,23,23,23,23,23,23,23,23,23,12,11,11,
10,23,23,23,23,23,23,23,23,23,23,23,23,23,23,23,23,11,11,11,
10,23,23,23,23,23,23,23,23,23,23,23,23,23,23,23,23,11,11,11,
10,23,23,23,23,23,23,23,23,23,23,23,23,23,23,23,23,11,11,11,
10,23,23,23,23,23,23,23,23,23,23,23,23,23,23,23,23,11,11,11,
10,23,23,23,23,23,23,23,23,23,23,23,23,23,23,23,23,12,11,11,
10,23,23,23,23,23,23,23,23,23,23,23,23,23,23,23,23,12,11,11,
10,23,23,23,23,23,23,23,23,23,23,23,23,23,23,23,23,12,11,11,
10,23,23,23,23,23,23,23,23,23,23,23,23,23,23,23,23,12,11,11,
10,23,23,23,23,23,23,23,23,23,23,23,23,23,23,23,23,12,11,11,
14,15,15,15,15,15,15,15,15,15,15,15,15,15,15,15,15,16,11,11,
11,11,11,11,11,11,11,11,11,11,11,11,11,11,11,11,11,11,11,11,
11,11,11,11,11,11,11,11,11,11,11,11,11,11,11,11,11,11,11,11,
11,11,11,11,11,11,11,11,11,11,11,11,11,11,11,11,11,11,11,11,
11,11,11,11,11,11,11,11,11,11,11,11,11,11,11,11,11,11,11,11,
11,11,11,11,11,11,11,11,11,11,11,11,11,11,11,11,11,11,11,11,
11,11,11,11,11,11,11,11,11,11,11,11,11,11,11,11,11,11,11,11
</data>
 </layer>
 <layer id="2" name="decal" width="20" height="24">
  <data encoding="csv">
0,0,0,0,0,0,0,0,0,0,0,0,0,0,0,0,0,0,0,0,
0,0,0,0,0,0,0,0,0,0,0,0,0,0,0,0,0,0,0,0,
0,0,0,0,0,0,0,0,0,0,0,0,0,0,0,0,0,0,0,0,
0,0,0,0,0,0,0,0,0,0,0,0,0,0,0,0,0,0,0,0,
0,0,0,0,0,0,0,0,0,0,0,0,0,0,0,0,0,0,0,0,
0,0,0,0,0,0,0,0,0,0,0,0,0,0,0,0,0,0,0,0,
0,0,0,0,0,0,0,0,0,0,0,0,0,0,0,0,0,0,0,0,
0,0,0,0,0,0,0,0,0,0,0,0,0,0,0,0,0,0,0,0,
0,0,0,0,0,0,0,0,0,0,0,0,0,0,0,0,0,0,0,0,
0,0,0,0,0,0,0,0,0,0,0,0,0,0,0,0,0,0,0,0,
0,0,0,0,0,0,0,0,0,0,0,0,0,0,0,0,0,0,0,0,
0,0,0,0,0,0,0,0,0,0,0,0,0,0,0,0,0,0,0,0,
0,0,0,0,0,0,0,0,0,0,0,0,0,0,0,0,0,0,0,0,
0,0,0,0,0,0,0,0,0,0,0,0,0,0,0,0,0,0,0,0,
0,0,0,0,0,0,0,0,0,0,0,0,0,0,0,0,0,0,0,0,
0,0,0,0,0,0,0,0,0,0,0,0,0,0,0,0,0,0,0,0,
0,0,0,0,0,0,0,0,0,0,0,0,0,0,0,0,0,0,0,0,
0,0,0,0,0,0,0,0,0,0,0,0,0,0,0,0,0,0,0,0,
0,0,0,0,0,0,0,0,0,0,0,0,0,0,0,0,0,0,0,0,
0,0,0,0,0,0,0,0,0,0,0,0,0,0,0,0,0,0,0,0,
0,0,0,0,0,0,0,0,0,0,0,0,0,0,0,0,0,0,0,0,
0,0,0,0,0,0,0,0,0,0,0,0,0,0,0,0,0,0,0,0,
0,0,0,0,0,0,0,0,0,0,0,0,0,0,0,0,0,0,0,0,
0,0,0,0,0,0,0,0,0,0,0,0,0,0,0,0,0,0,0,0
</data>
 </layer>
 <objectgroup color="#0000ff" id="3" name="collision" opacity="0.5">
  <object id="76" x="0" y="320" width="40" height="160"/>
  <object id="78" x="0" y="160" width="40" height="520"/>
  <object id="79" x="0" y="680" width="683.213" height="40"/>
  <object id="81" x="40" y="120" width="640" height="40"/>
  <object id="87" x="680" y="160" width="40" height="160"/>
  <object id="88" x="680" y="480" width="45.7618" height="191.468"/>
  <object id="89" x="720" y="480" width="80" height="40"/>
  <object id="90" x="720" y="280" width="80" height="40"/>
 </objectgroup>
 <objectgroup color="#ff00ff" id="4" name="objects">
  <object id="65" name="enemy" x="80" y="360" width="40" height="40">
   <properties>
    <property name="actor" value="FiftyN"/>
    <property name="encounter" value="Fifty"/>
   </properties>
  </object>
  <object id="66" x="980.32" y="226.545" height="1.373"/>
  <object id="85" name="transition" x="760" y="320" width="40" height="160">
   <properties>
    <property name="map" value="room1"/>
    <property name="marker" value="entry"/>
   </properties>
  </object>
 </objectgroup>
 <objectgroup color="#7f00ff" id="5" name="markers">
  <object id="86" name="entry" x="680" y="400">
   <point/>
  </object>
 </objectgroup>
</map>
