<?xml version="1.0" encoding="UTF-8"?>
<map version="1.10" tiledversion="1.11.2" orientation="orthogonal" renderorder="right-down" width="20" height="24" tilewidth="40" tileheight="40" infinite="0" nextlayerid="6" nextobjectid="94">
 <editorsettings>
  <export target="room2.lua" format="lua"/>
 </editorsettings>
 <properties>
  <property name="name" value="Test Map - Room 1"/>
 </properties>
 <tileset firstgid="1" source="../tilesets/castle.tsx"/>
 <layer id="1" name="tiles" width="20" height="24">
  <data encoding="csv">
11,11,11,10,11,11,11,11,11,11,11,11,11,11,11,11,11,11,12,11,
11,11,11,10,11,11,11,11,11,11,11,11,11,11,11,11,11,11,12,11,
11,11,11,10,11,11,11,11,11,11,11,11,11,11,11,11,11,11,12,11,
11,11,11,14,15,15,15,15,15,15,15,15,15,15,15,15,15,15,16,11,
11,11,11,18,19,19,19,19,19,19,19,19,19,19,19,19,19,19,20,11,
11,11,11,22,23,23,23,23,23,23,23,23,23,23,23,23,23,23,24,11,
11,11,11,22,23,23,23,23,23,23,23,23,23,23,23,23,23,23,24,11,
11,11,11,22,23,23,23,23,23,23,23,23,23,23,23,23,23,23,24,11,
11,11,11,22,23,23,23,23,23,23,23,23,23,23,23,23,23,23,24,11,
11,11,11,22,23,23,23,23,23,23,23,23,23,23,23,23,23,23,24,11,
11,11,11,22,23,23,23,23,23,23,23,23,23,23,23,23,23,23,24,11,
11,11,11,22,23,23,23,23,23,23,23,23,23,23,23,23,23,23,24,11,
11,11,11,22,23,23,23,23,23,23,23,23,23,23,23,23,23,23,24,11,
11,11,11,22,23,23,23,23,23,23,23,23,23,23,23,23,23,23,24,11,
11,11,11,22,23,23,23,23,23,23,23,23,23,23,23,23,23,23,24,11,
11,11,11,22,23,23,23,23,23,23,23,23,23,23,23,23,23,23,24,11,
11,11,11,22,26,27,27,27,27,27,27,27,27,27,27,27,27,28,24,11,
11,11,11,11,11,11,11,11,11,11,11,11,11,11,11,11,11,11,11,11,
11,11,11,11,11,11,11,11,11,11,11,11,11,11,11,11,11,11,11,11,
11,11,11,11,11,11,11,11,11,11,11,11,11,11,11,11,11,11,11,11,
11,11,11,11,11,11,11,11,11,11,11,11,11,11,11,11,11,11,11,11,
11,11,11,11,11,11,11,11,11,11,11,11,11,11,11,11,11,11,11,11,
11,11,11,11,11,11,11,11,11,11,11,11,11,11,11,11,11,11,11,11,
11,11,11,11,11,11,11,11,11,11,11,11,11,11,11,11,11,11,11,11
</data>
 </layer>
 <layer id="2" name="decal" width="20" height="24">
  <data encoding="csv">
0,0,0,0,0,0,0,0,0,0,0,0,0,0,0,0,0,0,0,0,
0,0,0,0,0,0,0,0,0,0,0,0,0,0,0,0,0,0,0,0,
0,0,0,0,0,0,0,0,0,0,0,0,0,0,0,0,0,0,0,0,
0,0,0,0,0,0,0,0,0,0,0,0,0,0,0,0,0,0,0,0,
0,0,0,0,0,0,0,0,0,0,0,0,0,0,0,0,0,0,0,0,
0,0,0,0,0,0,0,0,0,0,0,0,0,0,0,0,0,0,0,0,
0,0,0,0,0,0,0,0,0,0,0,0,0,0,0,0,0,0,0,0,
0,0,0,0,0,0,0,0,30,31,32,0,0,0,0,0,0,0,0,0,
0,0,0,0,0,0,0,0,34,35,36,0,0,0,0,0,0,0,0,0,
0,0,0,0,0,0,0,0,38,39,40,0,0,0,0,0,0,0,0,0,
0,0,0,0,0,0,0,0,0,0,0,0,0,0,0,0,0,0,0,0,
0,0,0,0,0,0,0,0,0,0,0,0,0,0,0,0,0,0,0,0,
0,0,0,0,0,0,0,0,0,0,0,0,0,0,0,0,0,0,0,0,
0,0,0,0,0,0,0,0,0,0,0,0,0,0,0,0,0,0,0,0,
0,0,0,0,0,0,0,0,0,0,0,0,0,0,0,0,0,0,0,0,
0,0,0,0,0,0,0,0,0,0,0,0,0,0,0,0,0,0,0,0,
0,0,0,0,0,0,0,0,0,0,0,0,0,0,0,0,0,0,0,0,
0,0,0,0,0,0,0,0,0,0,0,0,0,0,0,0,0,0,0,0,
0,0,0,0,0,0,0,0,0,0,0,0,0,0,0,0,0,0,0,0,
0,0,0,0,0,0,0,0,0,0,0,0,0,0,0,0,0,0,0,0,
0,0,0,0,0,0,0,0,0,0,0,0,0,0,0,0,0,0,0,0,
0,0,0,0,0,0,0,0,0,0,0,0,0,0,0,0,0,0,0,0,
0,0,0,0,0,0,0,0,0,0,0,0,0,0,0,0,0,0,0,0,
0,0,0,0,0,0,0,0,0,0,0,0,0,0,0,0,0,0,0,0
</data>
 </layer>
 <objectgroup color="#0000ff" id="3" name="collision" opacity="0.5">
  <object id="79" x="120" y="680" width="640" height="40"/>
  <object id="80" x="760" y="160" width="40" height="520"/>
  <object id="81" x="120" y="120" width="640" height="40"/>
 </objectgroup>
 <objectgroup color="#ff00ff" id="4" name="objects">
  <object id="66" x="980.32" y="226.545" height="1.373"/>
  <object id="85" name="transition" x="0" y="320" width="40" height="160">
   <properties>
    <property name="map" value="room1"/>
    <property name="marker" value="entry"/>
   </properties>
  </object>
  <object id="87" name="enemy" x="640" y="200" width="40" height="40">
   <properties>
    <property name="actor" value="Test"/>
    <property name="encounter" value="Enemy copy"/>
   </properties>
  </object>
  <object id="88" name="enemy" x="640" y="560" width="40" height="40">
   <properties>
    <property name="actor" value="Test"/>
    <property name="encounter" value="Enemy"/>
   </properties>
  </object>
 </objectgroup>
 <objectgroup color="#7f00ff" id="5" name="markers">
  <object id="86" name="entry" x="120" y="400">
   <point/>
  </object>
  <object id="89" x="120" y="480" width="40" height="200"/>
  <object id="90" x="120" y="160" width="40" height="160"/>
  <object id="92" x="0" y="480" width="120" height="40"/>
  <object id="93" x="0" y="280" width="120" height="40"/>
 </objectgroup>
</map>
