<?xml version="1.0" encoding="UTF-8"?>
<map version="1.10" tiledversion="1.11.2" orientation="orthogonal" renderorder="right-down" width="20" height="24" tilewidth="40" tileheight="40" infinite="0" nextlayerid="6" nextobjectid="98">
 <editorsettings>
  <export target="tutorial_area4.lua" format="lua"/>
 </editorsettings>
 <properties>
  <property name="name" value="Test Map - Room 1"/>
 </properties>
 <tileset firstgid="1" source="../tilesets/castle.tsx"/>
 <tileset firstgid="41" source="../tilesets/Tutorial_Area.tsx"/>
 <layer id="1" name="tiles" width="20" height="24">
  <data encoding="csv">
0,0,0,0,0,0,0,0,0,0,0,0,0,0,0,0,0,0,0,0,
0,0,0,0,0,0,0,75,56,56,56,56,56,77,0,0,0,0,0,0,
0,0,0,0,0,0,0,75,56,56,56,56,56,77,0,0,0,0,0,0,
0,0,0,0,0,0,0,75,56,56,56,56,56,77,0,0,0,0,0,0,
0,0,0,0,0,0,0,75,56,56,56,56,56,77,0,0,0,0,0,0,
0,0,0,0,0,0,0,75,56,56,56,56,56,77,0,0,0,0,0,0,
0,0,0,0,0,0,0,75,56,56,56,56,56,77,0,0,0,0,0,0,
0,0,0,0,0,0,0,75,56,56,56,56,56,77,0,0,0,0,0,0,
0,0,0,0,0,0,0,75,56,56,56,56,56,77,0,0,0,0,0,0,
0,0,0,0,0,0,0,75,56,56,56,56,56,77,0,0,0,0,0,0,
0,0,0,0,0,0,0,75,56,56,56,56,56,77,0,0,0,0,0,0,
0,0,0,0,0,0,0,75,56,56,56,56,56,77,0,0,0,0,0,0,
0,0,0,0,0,0,0,75,56,56,56,56,56,77,0,0,0,0,0,0,
0,0,0,0,0,0,0,75,56,56,56,56,56,77,0,0,0,0,0,0,
0,0,0,0,0,0,0,75,56,56,56,56,56,77,0,0,0,0,0,0,
0,0,0,0,0,0,0,75,56,56,56,56,56,77,0,0,0,0,0,0,
0,0,0,0,0,0,0,75,56,56,56,56,56,77,0,0,0,0,0,0,
0,0,0,0,0,0,0,75,56,56,56,56,56,77,0,0,0,0,0,0,
0,0,0,0,0,0,0,75,56,56,56,56,56,77,0,0,0,0,0,0,
0,0,0,0,0,0,0,75,56,56,56,56,56,77,0,0,0,0,0,0,
0,0,0,0,0,0,0,75,56,56,56,56,56,77,0,0,0,0,0,0,
0,0,0,0,0,0,0,0,0,0,0,0,0,0,0,0,0,0,0,0,
0,0,0,0,0,0,0,0,0,0,0,0,0,0,0,0,0,0,0,0,
0,0,0,0,0,0,0,0,0,0,0,0,0,0,0,0,0,0,0,0
</data>
 </layer>
 <layer id="2" name="decal" width="20" height="24">
  <data encoding="csv">
0,0,0,0,0,0,0,0,0,0,0,0,0,0,0,0,0,0,0,0,
0,0,0,0,0,0,0,0,0,0,0,0,0,0,0,0,0,0,0,0,
0,0,0,0,0,0,0,0,0,0,0,0,0,0,0,0,0,0,0,0,
0,0,0,0,0,0,0,0,0,0,0,0,0,0,0,0,0,0,0,0,
0,0,0,0,0,0,0,0,0,0,0,0,0,0,0,0,0,0,0,0,
0,0,0,0,0,0,0,0,0,0,0,0,0,0,0,0,0,0,0,0,
0,0,0,0,0,0,0,0,0,0,0,0,0,0,0,0,0,0,0,0,
0,0,0,0,0,0,0,0,0,0,0,0,0,0,0,0,0,0,0,0,
0,0,0,0,0,0,0,0,0,0,0,0,0,0,0,0,0,0,0,0,
0,0,0,0,0,0,0,0,0,0,0,0,0,0,0,0,0,0,0,0,
0,0,0,0,0,0,0,0,0,0,0,0,0,0,0,0,0,0,0,0,
0,0,0,0,0,0,0,0,0,0,0,0,0,0,0,0,0,0,0,0,
0,0,0,0,0,0,0,0,0,0,0,0,0,0,0,0,0,0,0,0,
0,0,0,0,0,0,0,0,0,0,0,0,0,0,0,0,0,0,0,0,
0,0,0,0,0,0,0,0,0,0,0,0,0,0,0,0,0,0,0,0,
0,0,0,0,0,0,0,0,0,0,0,0,0,0,0,0,0,0,0,0,
0,0,0,0,0,0,0,0,0,0,0,0,0,0,0,0,0,0,0,0,
0,0,0,0,0,0,0,0,0,0,0,0,0,0,0,0,0,0,0,0,
0,0,0,0,0,0,0,0,0,0,0,0,0,0,0,0,0,0,0,0,
0,0,0,0,0,0,0,0,0,0,0,0,0,0,0,0,0,0,0,0,
0,0,0,0,0,0,0,0,0,0,0,0,0,0,0,0,0,0,0,0,
0,0,0,0,0,0,0,0,0,0,0,0,0,0,0,0,0,0,0,0,
0,0,0,0,0,0,0,0,0,0,0,0,0,0,0,0,0,0,0,0,
0,0,0,0,0,0,0,0,0,0,0,0,0,0,0,0,0,0,0,0
</data>
 </layer>
 <objectgroup color="#0000ff" id="3" name="collision" opacity="0.5">
  <object id="91" x="280" y="40" width="40" height="800"/>
  <object id="92" x="520" y="40" width="40" height="800"/>
 </objectgroup>
 <objectgroup color="#ff00ff" id="4" name="objects">
  <object id="66" x="980.32" y="226.545" height="1.373"/>
  <object id="93" name="transition" x="320" y="0" width="200" height="40">
   <properties>
    <property name="map" value="tutorial_area3"/>
    <property name="marker" value="down"/>
   </properties>
  </object>
  <object id="94" name="transition" x="320" y="840" width="200" height="40">
   <properties>
    <property name="map" value="tutorial_area5"/>
    <property name="marker" value="up"/>
   </properties>
  </object>
  <object id="97" name="script" x="320" y="160" width="200" height="40">
   <properties>
    <property name="cutscene" value="tutorial.bigger"/>
   </properties>
  </object>
 </objectgroup>
 <objectgroup color="#7f00ff" id="5" name="markers">
  <object id="95" name="up" x="418.837" y="99.723">
   <point/>
  </object>
  <object id="96" name="down" x="423.269" y="817.729">
   <point/>
  </object>
 </objectgroup>
</map>
