<?xml version="1.0" encoding="UTF-8"?>
<map version="1.10" tiledversion="1.11.2" orientation="orthogonal" renderorder="right-down" width="40" height="48" tilewidth="20" tileheight="20" infinite="0" nextlayerid="6" nextobjectid="189">
 <editorsettings>
  <export target="tutorial_area1.lua" format="lua"/>
 </editorsettings>
 <properties>
  <property name="name" value="Test Map - Room 1"/>
 </properties>
 <tileset firstgid="1" source="../tilesets/castle.tsx"/>
 <tileset firstgid="41" source="../tilesets/Tutorial_Area.tsx"/>
 <layer id="1" name="tiles" width="40" height="48">
  <data encoding="csv">
0,0,0,0,0,0,0,0,0,0,0,0,0,0,0,0,0,0,0,0,0,0,0,0,0,0,0,0,0,0,0,0,0,0,0,0,0,0,0,0,
0,0,0,0,44,44,44,44,44,44,44,44,44,44,44,44,44,44,44,44,44,44,44,44,44,44,44,44,44,44,44,44,0,0,0,0,0,0,0,0,
0,0,0,56,56,56,56,56,56,56,56,56,56,56,56,56,56,56,56,56,56,56,56,56,56,56,56,56,56,56,56,56,44,0,0,0,0,0,0,0,
0,51,56,56,48,46,46,46,48,56,56,56,56,56,56,56,56,56,56,56,56,56,56,56,56,56,56,56,56,56,56,56,56,56,44,0,0,0,0,0,
0,51,56,56,46,54,54,54,47,48,56,56,56,56,56,56,56,56,56,56,56,56,56,56,56,56,56,56,56,56,56,56,56,56,56,45,0,0,0,0,
0,51,56,48,47,54,54,54,47,48,48,56,56,56,56,56,56,56,56,56,56,56,56,56,56,56,56,56,56,46,46,56,56,56,56,53,0,0,0,0,
0,51,56,47,47,54,54,54,47,47,48,56,56,56,56,56,56,56,56,56,56,56,56,56,56,56,56,56,56,46,46,56,56,56,56,53,0,0,0,0,
0,51,56,56,55,55,47,47,47,47,48,56,56,56,56,56,56,56,56,56,56,56,56,56,56,56,56,55,55,54,54,47,47,56,56,53,0,0,0,0,
0,51,56,56,56,55,55,55,47,47,48,56,56,56,56,56,56,56,56,56,56,56,56,56,56,56,56,55,55,54,54,47,47,56,56,53,0,0,0,0,
0,51,56,56,56,56,56,56,56,56,56,56,56,56,56,56,56,56,56,56,56,56,56,56,56,56,56,56,56,48,48,56,56,56,56,53,0,0,0,0,
0,51,56,56,56,56,56,56,56,56,56,56,56,52,52,56,56,56,56,56,56,56,56,56,56,56,56,56,56,48,48,56,56,56,56,53,0,0,0,0,
0,51,56,56,56,56,56,56,56,56,56,56,56,56,56,56,56,56,56,52,56,56,56,56,56,56,56,56,56,56,56,56,56,56,56,53,0,0,0,0,
0,59,60,56,56,56,56,56,56,56,56,56,56,56,56,56,56,56,56,56,56,56,56,56,56,56,56,56,56,56,56,56,56,56,56,53,0,0,0,0,
0,0,0,59,56,56,56,56,56,56,56,56,56,56,56,56,56,56,56,56,56,56,56,56,56,56,56,56,56,56,56,56,56,56,56,53,0,0,0,0,
0,0,0,0,59,60,60,60,60,60,60,60,60,60,60,60,60,60,60,56,56,56,56,56,56,56,56,56,56,56,56,56,56,56,56,53,0,0,0,0,
0,0,0,0,0,0,0,0,0,0,0,0,0,0,0,0,0,0,0,59,56,56,56,56,56,56,56,56,56,56,56,56,56,56,56,53,0,0,0,0,
0,0,0,0,0,0,0,0,0,0,0,0,0,0,0,0,0,0,0,0,51,56,56,56,56,56,52,56,56,56,56,56,56,56,56,53,0,0,0,0,
0,0,0,0,0,0,0,0,0,0,0,0,0,0,0,0,0,0,0,0,51,56,56,56,56,56,52,56,56,56,56,56,56,56,56,53,0,0,0,0,
0,0,0,0,0,0,0,0,0,0,0,0,0,0,0,0,0,0,0,0,51,56,56,56,56,56,52,56,56,56,56,56,56,56,56,53,0,0,0,0,
0,0,0,0,0,0,0,0,0,0,0,0,0,0,0,0,0,0,0,0,51,56,56,56,56,56,52,52,56,56,56,56,56,56,56,53,0,0,0,0,
0,0,0,0,0,0,0,0,0,0,0,0,0,0,0,0,0,0,0,0,51,56,56,56,56,56,56,56,52,56,56,56,56,56,56,53,0,0,0,0,
0,0,0,0,0,0,0,0,0,0,0,0,0,0,0,0,0,0,0,0,51,56,56,56,56,56,56,56,52,56,56,56,56,56,56,53,0,0,0,0,
0,0,0,0,0,0,0,0,0,0,0,0,0,0,0,0,0,0,0,0,51,56,56,56,56,56,56,56,56,56,56,56,56,56,56,53,0,0,0,0,
0,0,0,0,0,0,0,0,0,0,0,0,0,0,0,0,0,0,0,0,51,56,56,56,56,56,56,56,56,56,56,56,56,56,56,53,0,0,0,0,
0,0,0,0,0,0,0,0,0,0,0,0,0,0,0,0,0,0,0,0,51,56,56,56,56,56,56,56,56,56,56,56,56,56,56,53,0,0,0,0,
0,0,0,0,0,0,0,0,0,0,0,0,0,0,0,0,0,0,0,0,51,56,56,56,56,56,56,56,56,56,56,56,56,56,56,53,0,0,0,0,
0,0,0,0,0,0,0,0,0,0,0,0,0,0,0,0,0,0,0,0,51,56,56,56,56,56,56,56,56,56,56,56,56,56,56,53,0,0,0,0,
0,0,0,0,0,0,0,0,0,0,0,0,0,0,0,0,0,0,0,0,51,56,56,56,56,56,56,56,56,56,56,56,56,56,56,53,0,0,0,0,
0,0,0,0,0,0,0,0,0,0,0,0,0,0,0,0,0,0,0,43,56,56,56,56,56,56,56,56,56,56,56,56,56,56,56,53,0,0,0,0,
0,0,0,0,43,44,44,44,44,44,44,44,44,44,44,44,44,44,44,56,56,56,56,56,56,56,56,56,56,56,56,56,56,56,56,53,0,0,0,0,
0,0,0,43,56,56,56,56,56,56,56,56,56,56,56,56,56,56,56,56,56,56,56,56,56,56,56,56,56,56,56,56,56,56,56,53,0,0,0,0,
0,43,44,56,56,56,56,56,56,56,56,56,56,56,56,56,56,56,56,56,56,56,56,56,56,56,56,56,56,56,56,56,56,56,56,53,0,0,0,0,
0,51,56,56,56,56,46,46,56,56,56,56,56,56,56,56,56,56,56,56,56,56,56,56,56,56,56,56,56,56,56,56,56,56,56,53,0,0,0,0,
0,51,56,56,56,56,46,46,56,56,56,56,56,56,56,52,52,56,56,56,56,56,56,56,56,56,56,56,56,56,56,56,56,56,56,53,0,0,0,0,
0,51,56,56,55,55,54,54,47,47,56,56,56,52,52,52,56,56,56,56,52,56,56,56,56,56,56,56,56,56,56,56,56,56,56,53,0,0,0,0,
0,51,56,56,55,55,54,54,47,47,56,56,56,56,56,56,56,56,56,56,56,56,56,56,56,56,56,56,56,56,56,56,56,56,56,53,0,0,0,0,
0,51,56,56,56,56,48,48,56,56,56,56,56,56,56,56,56,56,56,56,56,56,56,56,56,56,56,56,56,56,56,56,56,56,56,56,44,44,44,44,
0,51,56,56,56,56,48,48,56,56,56,56,56,56,56,56,56,56,56,56,56,56,56,56,56,56,56,56,56,56,56,56,56,56,56,56,56,56,56,56,
0,51,56,56,56,56,56,56,56,56,56,56,56,56,56,56,56,56,56,56,56,56,56,56,56,56,56,56,56,56,56,56,56,56,56,56,56,56,56,56,
0,51,56,56,56,56,56,56,56,56,56,56,56,56,56,56,56,56,56,56,56,56,56,56,56,56,56,56,56,56,56,56,56,56,56,56,56,56,56,56,
0,0,51,56,56,56,56,56,56,56,56,56,56,56,56,56,56,56,56,56,56,56,56,56,56,56,56,56,56,56,56,56,56,56,56,56,56,56,56,56,
0,0,59,60,56,56,56,56,56,56,56,56,56,52,56,56,56,56,56,56,56,56,56,56,56,56,56,56,56,56,52,52,52,56,56,56,56,56,56,56,
0,0,0,0,59,56,56,56,56,56,56,56,52,52,56,56,56,56,56,56,56,56,56,56,56,56,56,52,52,52,52,56,56,56,56,56,56,56,56,56,
0,0,0,0,0,59,56,56,56,56,56,52,52,56,56,56,56,56,56,56,56,56,56,56,56,56,56,56,56,56,56,56,56,56,56,60,60,60,60,60,
0,0,0,0,0,0,59,60,56,56,52,52,56,56,56,56,56,56,56,56,56,56,56,56,56,56,56,56,56,56,56,56,56,56,61,0,0,0,0,0,
0,0,0,0,0,0,0,0,59,60,56,56,56,56,56,56,56,56,56,56,56,56,56,56,56,56,56,56,56,56,56,56,56,61,0,0,0,0,0,0,
0,0,0,0,0,0,0,0,0,0,59,60,60,60,60,60,60,60,60,60,60,60,60,60,60,60,60,60,60,60,60,60,61,0,0,0,0,0,0,0,
0,0,0,0,0,0,0,0,0,0,0,0,0,0,0,0,0,0,0,0,0,0,0,0,0,0,0,0,0,0,0,0,0,0,0,0,0,0,0,0
</data>
 </layer>
 <layer id="2" name="decal" width="40" height="48">
  <data encoding="csv">
0,0,0,0,0,0,0,0,0,0,0,0,0,0,0,0,0,0,0,0,0,0,0,0,0,0,0,0,0,0,0,0,0,0,0,0,0,0,0,0,
0,0,0,0,0,0,0,0,0,0,0,0,0,0,0,0,0,0,0,0,0,0,0,0,0,0,0,0,0,0,0,0,0,0,0,0,0,0,0,0,
0,0,0,0,0,0,0,0,0,0,0,0,0,0,0,0,0,0,0,0,0,0,0,0,0,0,0,0,0,0,0,0,0,0,0,0,0,0,0,0,
0,0,0,0,0,0,0,0,0,0,0,0,0,0,0,0,0,0,0,0,0,0,0,0,0,0,0,0,0,0,0,0,0,0,0,0,0,0,0,0,
0,0,0,0,0,0,0,0,0,0,0,0,0,0,0,0,0,0,0,0,0,0,0,0,0,0,0,0,0,0,0,0,0,0,0,0,0,0,0,0,
0,0,0,0,0,0,0,0,0,0,0,0,0,0,0,0,0,0,0,0,0,0,0,0,0,0,0,0,0,0,0,0,0,0,0,0,0,0,0,0,
0,0,0,0,0,0,0,0,0,0,0,0,0,0,0,0,0,0,0,0,0,0,0,0,0,0,0,0,0,0,0,0,0,0,0,0,0,0,0,0,
0,0,0,0,0,0,0,0,0,0,0,0,0,0,0,0,0,0,0,0,0,0,0,0,0,0,0,0,0,0,0,0,0,0,0,0,0,0,0,0,
0,0,0,0,0,0,0,0,0,0,0,0,0,0,0,0,0,0,0,0,0,0,0,0,0,0,0,0,0,0,0,0,0,0,0,0,0,0,0,0,
0,0,0,0,0,0,0,0,0,0,0,0,0,0,0,0,0,0,0,0,0,0,0,0,0,0,0,0,0,0,0,0,0,0,0,0,0,0,0,0,
0,0,0,0,0,0,0,0,0,0,0,0,0,0,0,0,0,0,0,0,0,0,0,0,0,0,0,0,0,0,0,0,0,0,0,0,0,0,0,0,
0,0,0,0,0,0,0,0,0,0,0,0,0,0,0,0,0,0,0,0,0,0,0,0,0,0,0,0,0,0,0,0,0,0,0,0,0,0,0,0,
0,0,0,0,0,0,0,0,0,0,0,0,0,0,0,0,0,0,0,0,0,0,0,0,0,0,0,0,0,0,0,0,0,0,0,0,0,0,0,0,
0,0,0,0,0,0,0,0,0,0,0,0,0,0,0,0,0,0,0,0,0,0,0,0,0,0,0,0,0,0,0,0,0,0,0,0,0,0,0,0,
0,0,0,0,0,0,0,0,0,0,0,0,0,0,0,0,0,0,0,0,0,0,0,0,0,0,0,0,0,0,0,0,0,0,0,0,0,0,0,0,
0,0,0,0,0,0,0,0,0,0,0,0,0,0,0,0,0,0,0,0,0,0,0,0,0,0,0,0,0,0,0,0,0,0,0,0,0,0,0,0,
0,0,0,0,0,0,0,0,0,0,0,0,0,0,0,0,0,0,0,0,0,0,0,0,0,0,0,0,0,0,0,0,0,0,0,0,0,0,0,0,
0,0,0,0,0,0,0,0,0,0,0,0,0,0,0,0,0,0,0,0,0,0,0,0,0,0,0,0,0,0,0,0,0,0,0,0,0,0,0,0,
0,0,0,0,0,0,0,0,0,0,0,0,0,0,0,0,0,0,0,0,0,0,0,0,0,0,0,0,0,0,0,0,0,0,0,0,0,0,0,0,
0,0,0,0,0,0,0,0,0,0,0,0,0,0,0,0,0,0,0,0,0,0,0,0,0,0,0,0,0,0,0,0,0,0,0,0,0,0,0,0,
0,0,0,0,0,0,0,0,0,0,0,0,0,0,0,0,0,0,0,0,0,0,0,0,0,0,0,0,0,0,0,0,0,0,0,0,0,0,0,0,
0,0,0,0,0,0,0,0,0,0,0,0,0,0,0,0,0,0,0,0,0,0,0,0,0,0,0,0,0,0,0,0,0,0,0,0,0,0,0,0,
0,0,0,0,0,0,0,0,0,0,0,0,0,0,0,0,0,0,0,0,0,0,0,0,0,0,0,0,0,0,0,0,0,0,0,0,0,0,0,0,
0,0,0,0,0,0,0,0,0,0,0,0,0,0,0,0,0,0,0,0,0,0,0,0,0,0,0,0,0,0,0,0,0,0,0,0,0,0,0,0,
0,0,0,0,0,0,0,0,0,0,0,0,0,0,0,0,0,0,0,0,0,0,0,0,0,0,0,0,0,0,0,0,0,0,0,0,0,0,0,0,
0,0,0,0,0,0,0,0,0,0,0,0,0,0,0,0,0,0,0,0,0,0,0,0,0,0,0,0,0,0,0,0,0,0,0,0,0,0,0,0,
0,0,0,0,0,0,0,0,0,0,0,0,0,0,0,0,0,0,0,0,0,0,0,0,0,0,0,0,0,0,0,0,0,0,0,0,0,0,0,0,
0,0,0,0,0,0,0,0,0,0,0,0,0,0,0,0,0,0,0,0,0,0,0,0,0,0,0,0,0,0,0,0,0,0,0,0,0,0,0,0,
0,0,0,0,0,0,0,0,0,0,0,0,0,0,0,0,0,0,0,0,0,0,0,0,0,0,0,0,0,0,0,0,0,0,0,0,0,0,0,0,
0,0,0,0,0,0,0,0,0,0,0,0,0,0,0,0,0,0,0,0,0,0,0,0,0,0,0,0,0,0,0,0,0,0,0,0,0,0,0,0,
0,0,0,0,0,0,0,0,0,0,0,0,0,0,0,0,0,0,0,0,0,0,0,0,0,0,0,0,0,0,0,0,0,0,0,0,0,0,0,0,
0,0,0,0,0,0,0,0,0,0,0,0,0,0,0,0,0,0,0,0,0,0,0,0,0,0,0,0,0,0,0,0,0,0,0,0,0,0,0,0,
0,0,0,0,0,0,0,0,0,0,0,0,0,0,0,0,0,0,0,0,0,0,0,0,0,0,0,0,0,0,0,0,0,0,0,0,0,0,0,0,
0,0,0,0,0,0,0,0,0,0,0,0,0,0,0,0,0,0,0,0,0,0,0,0,0,0,0,0,0,0,0,0,0,0,0,0,0,0,0,0,
0,0,0,0,0,0,0,0,0,0,0,0,0,0,0,0,0,0,0,0,0,0,0,0,0,0,0,0,0,0,0,0,0,0,0,0,0,0,0,0,
0,0,0,0,0,0,0,0,0,0,0,0,0,0,0,0,0,0,0,0,0,0,0,0,0,0,0,0,0,0,0,0,0,0,0,0,0,0,0,0,
0,0,0,0,0,0,0,0,0,0,0,0,0,0,0,0,0,0,0,0,0,0,0,0,0,0,0,0,0,0,0,0,0,0,0,0,0,0,0,0,
0,0,0,0,0,0,0,0,0,0,0,0,0,0,0,0,0,0,0,0,0,0,0,0,0,0,0,0,0,0,0,0,0,0,0,0,0,0,0,0,
0,0,0,0,0,0,0,0,0,0,0,0,0,0,0,0,0,0,0,0,0,0,0,0,0,0,0,0,0,0,0,0,0,0,0,0,0,0,0,0,
0,0,0,0,0,0,0,0,0,0,0,0,0,0,0,0,0,0,0,0,0,0,0,0,0,0,0,0,0,0,0,0,0,0,0,0,0,0,0,0,
0,0,0,0,0,0,0,0,0,0,0,0,0,0,0,0,0,0,0,0,0,0,0,0,0,0,0,0,0,0,0,0,0,0,0,0,0,0,0,0,
0,0,0,0,0,0,0,0,0,0,0,0,0,0,0,0,0,0,0,0,0,0,0,0,0,0,0,0,0,0,0,0,0,0,0,0,0,0,0,0,
0,0,0,0,0,0,0,0,0,0,0,0,0,0,0,0,0,0,0,0,0,0,0,0,0,0,0,0,0,0,0,0,0,0,0,0,0,0,0,0,
0,0,0,0,0,0,0,0,0,0,0,0,0,0,0,0,0,0,0,0,0,0,0,0,0,0,0,0,0,0,0,0,0,0,0,0,0,0,0,0,
0,0,0,0,0,0,0,0,0,0,0,0,0,0,0,0,0,0,0,0,0,0,0,0,0,0,0,0,0,0,0,0,0,0,0,0,0,0,0,0,
0,0,0,0,0,0,0,0,0,0,0,0,0,0,0,0,0,0,0,0,0,0,0,0,0,0,0,0,0,0,0,0,0,0,0,0,0,0,0,0,
0,0,0,0,0,0,0,0,0,0,0,0,0,0,0,0,0,0,0,0,0,0,0,0,0,0,0,0,0,0,0,0,0,0,0,0,0,0,0,0,
0,0,0,0,0,0,0,0,0,0,0,0,0,0,0,0,0,0,0,0,0,0,0,0,0,0,0,0,0,0,0,0,0,0,0,0,0,0,0,0
</data>
 </layer>
 <objectgroup color="#0000ff" id="3" name="collision" opacity="0.5">
  <object id="139" x="740" y="880" width="60" height="20"/>
  <object id="142" x="380" y="320" width="20" height="240"/>
  <object id="147" x="720" y="700" width="80" height="20"/>
  <object id="152" x="160" y="920" width="40" height="20"/>
  <object id="153" x="120" y="900" width="40" height="20"/>
  <object id="154" x="100" y="880" width="20" height="20"/>
  <object id="155" x="80" y="860" width="20" height="20"/>
  <object id="156" x="40" y="840" width="40" height="20"/>
  <object id="157" x="20" y="820" width="20" height="20"/>
  <object id="158" x="20" y="800" width="20" height="20"/>
  <object id="161" x="200" y="940" width="460" height="20"/>
  <object id="162" x="660" y="920" width="20" height="20"/>
  <object id="163" x="680" y="900" width="20" height="20"/>
  <object id="164" x="700" y="880" width="20" height="20"/>
  <object id="165" x="720" y="880" width="20" height="20"/>
  <object id="167" x="640" y="20" width="20" height="20"/>
  <object id="169" x="660" y="40" width="40" height="20"/>
  <object id="170" x="700" y="60" width="20" height="20"/>
  <object id="171" x="720" y="60" width="20" height="640"/>
  <object id="173" x="40" y="40" width="20" height="20"/>
  <object id="174" x="20" y="40" width="20" height="20"/>
  <object id="175" x="60" y="20" width="20" height="20"/>
  <object id="176" x="0" y="60" width="20" height="200"/>
  <object id="177" x="20" y="260" width="40" height="20"/>
  <object id="178" x="60" y="280" width="20" height="20"/>
  <object id="180" x="80" y="0" width="560" height="20"/>
  <object id="182" x="80" y="300" width="300" height="20"/>
  <object id="183" x="60" y="560" width="320" height="20"/>
  <object id="184" x="40" y="600" width="20" height="20"/>
  <object id="185" x="60" y="580" width="20" height="20"/>
  <object id="186" x="20" y="600" width="20" height="20"/>
  <object id="187" x="0" y="600" width="20" height="200"/>
 </objectgroup>
 <objectgroup color="#ff00ff" id="4" name="objects">
  <object id="113" name="transition" x="780" y="720" width="24.1244" height="155.406">
   <properties>
    <property name="map" value="tutorial_area2"/>
    <property name="marker" value="left"/>
   </properties>
  </object>
  <object id="120" name="script" x="115.455" y="93.1818" width="36.0454" height="37.2273">
   <properties>
    <property name="cutscene" value="Overworld.begin"/>
   </properties>
  </object>
 </objectgroup>
 <objectgroup color="#7f00ff" id="5" name="markers">
  <object id="116" name="spawn" x="133.182" y="110.909">
   <point/>
  </object>
  <object id="118" name="right" x="660" y="800">
   <point/>
  </object>
 </objectgroup>
</map>
