<?xml version="1.0" encoding="UTF-8"?>
<map version="1.10" tiledversion="1.11.2" orientation="orthogonal" renderorder="right-down" width="20" height="24" tilewidth="40" tileheight="40" infinite="0" nextlayerid="6" nextobjectid="122">
 <editorsettings>
  <export target="tutorial_area5.lua" format="lua"/>
 </editorsettings>
 <properties>
  <property name="name" value="Beginning - Room 5"/>
 </properties>
 <tileset firstgid="1" source="../tilesets/castle.tsx"/>
 <tileset firstgid="41" source="../tilesets/Tutorial_Area.tsx"/>
 <layer id="1" name="tiles" width="20" height="24">
  <data encoding="csv">
0,56,56,56,56,56,0,0,0,0,0,0,0,0,0,0,0,0,0,0,
75,52,52,52,52,52,78,68,68,69,0,0,0,0,0,0,0,0,0,0,
75,52,52,52,52,52,56,56,56,77,0,0,0,0,0,0,0,0,0,0,
75,56,56,56,56,56,56,56,56,77,0,0,0,0,0,0,0,0,0,0,
75,56,56,56,56,56,56,56,56,77,0,0,0,0,0,0,0,0,0,0,
75,56,56,56,56,56,56,56,56,77,0,0,0,0,0,0,0,0,0,0,
75,56,56,56,56,56,56,56,56,77,0,0,0,0,0,0,0,0,0,0,
75,56,56,56,56,56,56,56,56,77,0,0,0,0,0,0,0,0,0,0,
75,56,56,56,56,56,56,56,56,77,0,0,0,0,0,0,0,0,0,0,
75,56,56,56,56,56,56,56,56,77,0,0,0,0,0,0,0,0,0,0,
75,56,56,56,56,56,56,56,56,77,0,0,0,0,67,68,68,68,68,69,
75,56,56,56,56,56,56,56,56,77,0,0,0,0,75,56,56,56,56,77,
75,56,56,56,56,56,56,56,56,77,0,0,0,0,75,56,54,54,56,77,
75,56,56,56,56,56,56,56,56,77,0,0,0,0,75,46,54,54,48,77,
75,56,52,56,56,56,56,56,56,77,0,0,0,0,75,47,54,54,55,77,
75,56,52,56,56,56,56,56,56,77,0,0,0,0,75,56,56,56,56,77,
75,56,56,56,56,52,52,56,56,77,0,0,0,0,75,56,56,56,56,77,
75,56,56,56,56,56,56,56,56,77,0,0,0,0,75,56,56,56,56,77,
75,56,56,56,56,56,56,56,56,77,0,0,0,0,75,56,56,56,56,77,
75,56,56,56,56,56,56,56,56,77,0,0,0,0,75,56,56,56,56,77,
75,56,56,56,56,56,56,56,56,78,68,68,68,68,79,56,56,56,56,77,
75,56,56,56,56,56,56,56,56,52,46,47,47,48,52,56,56,56,56,77,
75,56,56,56,56,56,56,56,56,52,46,55,55,48,52,56,56,56,56,77,
83,84,84,84,84,84,84,84,84,84,84,84,84,84,84,84,84,84,84,85
</data>
 </layer>
 <layer id="2" name="decal" width="20" height="24">
  <data encoding="csv">
0,0,0,0,0,0,0,0,0,0,0,0,0,0,0,0,0,0,0,0,
0,0,0,0,0,0,0,0,0,0,0,0,0,0,0,0,0,0,0,0,
0,0,0,0,0,0,0,0,0,0,0,0,0,0,0,0,0,0,0,0,
0,0,0,0,0,0,0,0,0,0,0,0,0,0,0,0,0,0,0,0,
0,0,0,0,0,0,0,0,0,0,0,0,0,0,0,0,0,0,0,0,
0,0,0,0,0,0,0,0,0,0,0,0,0,0,0,0,0,0,0,0,
0,0,0,0,0,0,0,0,0,0,0,0,0,0,0,0,0,0,0,0,
0,0,0,0,0,0,0,0,0,0,0,0,0,0,0,0,0,0,0,0,
0,0,0,0,0,0,0,0,0,0,0,0,0,0,0,0,0,0,0,0,
0,0,0,0,0,0,0,0,0,0,0,0,0,0,0,0,0,0,0,0,
0,0,0,0,0,0,0,0,0,0,0,0,0,0,0,0,0,0,0,0,
0,0,0,0,0,0,0,0,0,0,0,0,0,0,0,0,0,0,0,0,
0,0,0,0,0,0,0,0,0,0,0,0,0,0,0,0,0,0,0,0,
0,0,0,0,0,0,0,0,0,0,0,0,0,0,0,0,0,0,0,0,
0,0,0,0,0,0,0,0,0,0,0,0,0,0,0,0,0,0,0,0,
0,0,0,0,0,0,0,0,0,0,0,0,0,0,0,0,0,0,0,0,
0,0,0,0,0,0,0,0,0,0,0,0,0,0,0,0,0,0,0,0,
0,0,0,0,0,0,0,0,0,0,0,0,0,0,0,0,0,0,0,0,
0,0,0,0,0,0,0,0,0,0,0,0,0,0,0,0,0,0,0,0,
0,0,0,0,0,0,0,0,0,0,0,0,0,0,0,0,0,0,0,0,
0,0,0,0,0,0,0,0,0,0,0,0,0,0,0,0,0,0,0,0,
0,0,0,0,0,0,0,0,0,0,0,0,0,0,0,0,0,0,0,0,
0,0,0,0,0,0,0,0,0,0,0,0,0,0,0,0,0,0,0,0,
0,0,0,0,0,0,0,0,0,0,0,0,0,0,0,0,0,0,0,0
</data>
 </layer>
 <objectgroup color="#0000ff" id="3" name="collision" opacity="0.5">
  <object id="92" x="0" y="0" width="40" height="960"/>
  <object id="93" x="40" y="920" width="760" height="40"/>
  <object id="95" x="400" y="800" width="200" height="40"/>
  <object id="96" x="760" y="400" width="40" height="520"/>
  <object id="97" x="560" y="400" width="40" height="400"/>
  <object id="98" x="600" y="400" width="160" height="40"/>
  <object id="99" x="360" y="80" width="40" height="760"/>
  <object id="100" x="240" y="40" width="120" height="40"/>
  <object id="120" x="659.5" y="440.5" width="39.25" height="78.75"/>
 </objectgroup>
 <objectgroup color="#ff00ff" id="4" name="objects">
  <object id="66" x="980.32" y="226.545" height="1.373"/>
  <object id="102" name="transition" x="40" y="0" width="200" height="40">
   <properties>
    <property name="map" value="tutorial_area4"/>
    <property name="marker" value="down"/>
   </properties>
  </object>
  <object id="108" name="script" x="40" y="320" width="320" height="40">
   <properties>
    <property name="cutscene" value="tutorial.fight"/>
   </properties>
  </object>
  <object id="109" name="savepoint" x="480" y="840">
   <properties>
    <property name="text1" value="* You feel as though your journey can finally begin..."/>
    <property name="text2" value="* Your soul shines with resolve."/>
   </properties>
  </object>
  <object id="115" name="portal" x="660" y="441.333">
   <properties>
    <property name="solid" value="true"/>
   </properties>
   <point/>
  </object>
 </objectgroup>
 <objectgroup color="#7f00ff" id="5" name="markers">
  <object id="104" name="up" x="137.333" y="98.6667">
   <point/>
  </object>
  <object id="107" name="spawn" x="478.667" y="905.333">
   <point/>
  </object>
  <object id="110" x="405.333" y="-88" width="2.66667"/>
  <object id="121" name="portal_spawn" x="680" y="560">
   <point/>
  </object>
 </objectgroup>
</map>
